%
(1001-grbl)
(test comment)
(T1  D=4 CR=0 - ZMIN=-20.49 - flat end mill)
G90 G94
G17
G21
G28 G91 Z0
G90

(Adaptive1)
M9
T1 M6
S10000 M3
G54
M8
G0 X-21.398 Y-25.619
Z15
Z-9.2
G1 Z-9.6 F1200
X-21.396 Y-25.611 Z-9.678
X-21.391 Y-25.589 Z-9.753
X-21.381 Y-25.553 Z-9.822
X-21.369 Y-25.505 Z-9.883
X-21.354 Y-25.447 Z-9.933
X-21.337 Y-25.38 Z-9.97
X-21.318 Y-25.307 Z-9.992
X-21.299 Y-25.231 Z-10
G3 X-20.986 Y-23.054 I-9.893 J2.534
G1 Y-22.904
X-21.146 Y-22.112
G2 X-21.351 Y-18.887 I24.875 J3.202
X-21.383 Y-11.613 I398.584 J5.373
G1 X-21.386 Y19.1
X-21.356 Y19.299
X-21.213 Y19.677
X-20.965 Y19.996
X-20.355 Y20.527
X-19.62 Y20.864
X-18.839 Y21.071
G2 X-15.621 Y21.339 I3.201 J-18.995
X-6.731 Y21.38 I6.299 J-401.06
G1 X19.133
X19.332 Y21.343
X19.704 Y21.187
X20.02 Y20.935
X20.544 Y20.32
X20.877 Y19.583
X21.081 Y18.801
G2 X21.345 Y15.583 I-19.273 J-3.201
X21.384 Y6.692 I-395.011 J-6.166
G1 X21.386 Y5.076
Y-19.171
X21.29 Y-19.564
X21.067 Y-19.901
X20.488 Y-20.465
X19.764 Y-20.825
X18.987 Y-21.048
G2 X15.772 Y-21.336 I-3.203 J17.625
X10.923 Y-21.378 I-3.951 J175.941
G1 X6.882 Y-21.382
X-3.626 Y-21.383
X-17.366 Y-21.385
X-17.567 Y-21.365
X-17.951 Y-21.239
X-18.282 Y-21.007
X-18.839 Y-20.422
X-19.201 Y-19.699
X-19.429 Y-18.924
G2 X-19.733 Y-15.71 I17.165 J3.247
X-19.783 Y-7.628 I304.259 J5.93
G1 X-19.785 Y14.194
X-19.786 Y17.023
X-19.726 Y17.423
X-19.567 Y17.795
X-19.099 Y18.454
X-18.44 Y18.921
X-17.694 Y19.234
X-16.912 Y19.437
G2 X-13.696 Y19.727 I3.354 J-19.22
X-8.039 Y19.776 I4.503 J-190.91
G1 X-3.189 Y19.78
X17.017
X17.417 Y19.722
X17.789 Y19.566
X18.451 Y19.102
X18.92 Y18.444
X19.235 Y17.699
X19.439 Y16.917
G2 X19.732 Y13.701 I-19.076 J-3.356
X19.782 Y8.044 I-189.106 J-4.503
G1 X19.786 Y4.003
Y-17.011
X19.734 Y-17.412
X19.58 Y-17.786
X19.118 Y-18.449
X18.46 Y-18.919
X17.716 Y-19.233
X16.934 Y-19.437
G2 X13.718 Y-19.728 I-3.352 J19.151
X8.06 Y-19.778 I-4.525 J191.316
G1 X3.211 Y-19.782
X-0.83 Y-19.783
X-15.379 Y-19.785
X-15.778 Y-19.727
X-16.152 Y-19.573
X-16.817 Y-19.114
X-17.293 Y-18.46
X-17.613 Y-17.718
X-17.823 Y-16.938
G2 X-18.126 Y-13.723 I18.599 J3.376
X-18.184 Y-6.259 I267.255 J5.797
G1 X-18.208 Y-6.152
G2 X-18.592 Y-4.926 I11.291 J4.206
G1 X-18.941 Y-3.276
X-19.05 Y-2.726
G2 X-19.238 Y-0.159 I48.109 J4.797
G1 X-19.234 Y0.208
G2 X-19.045 Y2.775 I44.547 J-1.983
G1 X-18.931 Y3.324
X-18.581 Y4.971
G3 X-18.236 Y8.183 I-15.384 J3.273
X-18.189 Y15.457 I-245.357 J5.244
G1 X-18.078 Y15.847
X-17.89 Y16.205
X-17.391 Y16.84
X-16.723 Y17.295
X-15.977 Y17.606
X-15.195 Y17.811
G2 X-11.981 Y18.118 I3.434 J-18.992
X-6.345 Y18.179 I4.819 J-185.429
G1 X-6.248 Y18.198
X-6.154 Y18.224
X-5.685 Y18.377
X-5.502 Y18.424
X-3.851 Y18.836
X-3.301 Y18.961
X-3.118 Y18.984
X-2.568 Y19.044
X-0.917 Y19.218
X-0.734 Y19.223
X-0.367 Y19.23
G2 X2.017 Y19.138 I-0.89 J-54.313
X4.585 Y18.685 I-10.009 J-64.189
G3 X7.162 Y18.275 I3.069 J10.988
X12.01 Y18.188 I3.993 J87.184
G1 X13.627 Y18.181
X15.243 Y18.18
X15.643 Y18.124
X16.021 Y17.981
X16.703 Y17.546
X17.201 Y16.91
X17.544 Y16.178
X17.772 Y15.403
G2 X18.116 Y12.193 I-16.958 J-3.437
X18.183 Y6.317 I-167.184 J-4.859
G1 X18.2 Y6.231
X18.22 Y6.147
X18.766 Y4.241
X18.811 Y4.058
X18.851 Y3.874
X18.981 Y2.958
X19.161 Y1.674
X19.185 Y1.491
X19.208 Y0.941
Y-0.892
X19.191 Y-1.442
X19.168 Y-1.626
X18.89 Y-3.608
G2 X18.706 Y-4.45 I-4.819 J0.611
G3 X18.254 Y-7.644 I13.127 J-3.487
X18.19 Y-15.321 I209.578 J-5.591
G1 X18.112 Y-15.719
X17.953 Y-16.09
X17.495 Y-16.756
X16.846 Y-17.238
X16.108 Y-17.568
X15.33 Y-17.787
G2 X12.118 Y-18.115 I-3.435 J17.746
X6.256 Y-18.181 I-4.949 J179.484
G1 X6.16 Y-18.2
G2 X4.402 Y-18.73 I-7.299 J21.032
G1 X2.568 Y-19.051
G2 X1.467 Y-19.167 I-1.133 J5.505
G1 X-0.183 Y-19.226
X-0.367 Y-19.23
X-0.734 Y-19.223
G2 X-3.301 Y-18.96 I4.063 J52.351
G1 X-3.851 Y-18.836
G3 X-7.975 Y-18.239 I-4.316 J-15.294
X-13.632 Y-18.188 I-4.404 J-174.935
G1 X-14.032 Y-18.128
X-14.409 Y-17.984
X-15.09 Y-17.548
X-15.59 Y-16.913
X-15.934 Y-16.181
X-16.164 Y-15.407
G2 X-16.512 Y-12.197 I16.851 J3.449
G1 X-16.576 Y-9.836
X-16.614 Y-9.693
X-16.673 Y-9.557
X-17.478 Y-8.042
G2 X-17.846 Y-7.125 I5.856 J2.879
G1 X-18.239 Y-6.048
X-18.381 Y-5.659
X-18.438 Y-5.476
X-18.488 Y-5.304
X-18.546 Y-5.109
G2 X-19.077 Y-2.544 I39.365 J9.482
X-19.236 Y-0.159 I235.017 J16.864
G1 X-19.234 Y0.208
G2 X-19.045 Y2.775 I44.547 J-1.983
G1 X-18.968 Y3.141
X-18.931 Y3.324
X-18.743 Y4.206
X-18.58 Y4.974
X-18.535 Y5.158
X-18.422 Y5.524
G2 X-17.605 Y7.772 I46.977 J-15.8
G3 X-17.114 Y8.875 I-10.17 J5.184
G1 X-16.969 Y9.395
X-16.816 Y10.16
G3 X-16.616 Y13.384 I-25.225 J3.178
G1 X-16.58 Y13.787
X-16.472 Y14.177
X-16.287 Y14.536
X-15.797 Y15.179
X-15.137 Y15.644
X-14.395 Y15.965
X-13.616 Y16.18
G2 X-10.018 Y16.52 I3.643 J-19.36
G1 X-9.866 Y16.541
X-9.718 Y16.583
X-9.58 Y16.649
X-8.803 Y17.097
X-8.62 Y17.201
G2 X-6.154 Y18.225 I14.472 J-31.359
G1 X-5.685 Y18.377
X-5.502 Y18.424
X-5.402 Y18.449
X-3.851 Y18.836
G2 X-2.567 Y19.041 I1.634 J-6.096
G1 X-0.917 Y19.218
X-0.734 Y19.223
X-0.367 Y19.23
G2 X2.017 Y19.138 I-0.898 J-54.588
X4.001 Y18.799 I-8.661 J-56.585
G1 X4.423 Y18.724
X4.585 Y18.685
X4.768 Y18.634
X4.952 Y18.583
X5.095 Y18.541
X6.788 Y17.991
G2 X8.253 Y17.346 I-3.317 J-9.518
G1 X8.609 Y17.194
X9.042 Y17.048
X9.65 Y16.898
G3 X12.867 Y16.623 I3.16 J18.012
G1 X13.675 Y16.603
X14.07 Y16.519
X14.44 Y16.356
X15.106 Y15.898
X15.594 Y15.254
X15.932 Y14.52
X16.16 Y13.744
G2 X16.51 Y10.535 I-17.05 J-3.485
G1 X16.53 Y10.032
X16.549 Y9.87
X16.597 Y9.713
X16.671 Y9.568
G2 X17.179 Y8.641 I-4.601 J-3.125
G1 X17.913 Y6.991
G2 X18.22 Y6.147 I-5.602 J-2.51
G1 X18.436 Y5.392
X18.766 Y4.241
X18.811 Y4.058
G2 X19.184 Y1.491 I-46.569 J-8.091
X19.19 Y-1.442 I-35.529 J-1.532
G1 X19.168 Y-1.626
X18.879 Y-3.685
G2 X18.706 Y-4.45 I-4.708 J0.664
G1 X18.202 Y-6.209
X18.156 Y-6.356
X18.011 Y-6.759
X17.973 Y-6.858
X17.364 Y-8.226
X17.137 Y-8.813
X16.989 Y-9.311
X16.836 Y-10.033
G3 X16.619 Y-13.256 I23.106 J-3.174
G1 X16.6 Y-13.66
X16.521 Y-14.056
X16.361 Y-14.427
X15.907 Y-15.095
X15.264 Y-15.585
X14.531 Y-15.925
X13.756 Y-16.154
G2 X10.547 Y-16.506 I-3.485 J16.976
G1 X10.066 Y-16.525
X9.92 Y-16.541
X9.779 Y-16.58
G2 X7.396 Y-17.76 I-22.526 J42.509
G1 X6.925 Y-17.942
X6.786 Y-17.992
X6.066 Y-18.226
X5.319 Y-18.468
G2 X4.402 Y-18.729 I-3.303 J9.89
X2.018 Y-19.14 I-17.434 J93.839
X-0.734 Y-19.227 I-2.773 J44.119
X-3.301 Y-18.961 I6.774 J77.781
G1 X-3.851 Y-18.836
X-4.006 Y-18.797
X-4.768 Y-18.607
G2 X-6.42 Y-18.125 I2.214 J10.656
X-8.775 Y-17.16 I44.962 J113.109
G1 X-9.245 Y-17.014
X-9.916 Y-16.862
X-10.716 Y-16.748
X-11.521 Y-16.681
X-12.328 Y-16.642
X-12.706 Y-16.497
X-13.393 Y-16.071
X-13.909 Y-15.449
X-14.271 Y-14.727
X-14.517 Y-13.957
X-14.68 Y-13.165
X-14.763 Y-12.549
X-14.797 Y-12.394
X-14.857 Y-12.247
X-14.941 Y-12.113
G3 X-15.604 Y-12.172 I-0.312 J-0.251
G1 X-15.641 Y-12.24 Z-9.992
X-15.677 Y-12.306 Z-9.97
X-15.71 Y-12.367 Z-9.933
X-15.739 Y-12.42 Z-9.883
X-15.763 Y-12.464 Z-9.822
X-15.781 Y-12.496 Z-9.753
X-15.792 Y-12.516 Z-9.678
X-15.795 Y-12.523 Z-9.6
G0 Z5
X-7.435 Y-18.218
Z-9.2
G1 Z-9.6 F1200
X-7.44 Y-18.211 Z-9.678
X-7.452 Y-18.192 Z-9.753
X-7.473 Y-18.162 Z-9.822
X-7.502 Y-18.121 Z-9.883
X-7.536 Y-18.071 Z-9.933
X-7.575 Y-18.014 Z-9.97
X-7.617 Y-17.952 Z-9.992
X-7.662 Y-17.888 Z-10
G3 X-8.253 Y-17.371 I-1.305 J-0.895
G1 X-8.62 Y-17.201
X-8.803 Y-17.097
X-10.27 Y-16.25
X-10.453 Y-16.143
X-11.004 Y-15.777
G2 X-12.838 Y-14.339 I53.571 J70.244
G1 X-13.204 Y-13.978
X-14.51 Y-12.626
X-14.676 Y-12.442
X-14.855 Y-12.228
X-14.969 Y-12.076
X-16.168 Y-10.426
X-16.322 Y-10.193
X-16.405 Y-10.059
X-16.673 Y-9.557
G3 X-17.337 Y-9.513 I-0.346 J-0.2
G1 X-17.384 Y-9.575 Z-9.992
X-17.43 Y-9.635 Z-9.97
X-17.472 Y-9.69 Z-9.933
X-17.509 Y-9.738 Z-9.883
X-17.539 Y-9.777 Z-9.822
X-17.562 Y-9.806 Z-9.753
X-17.576 Y-9.824 Z-9.678
X-17.58 Y-9.831 Z-9.6
G0 Z5
X-18.314 Y7.378
Z-9.2
G1 Z-9.6 F1200
X-18.307 Y7.382 Z-9.678
X-18.288 Y7.394 Z-9.753
X-18.256 Y7.413 Z-9.822
X-18.213 Y7.439 Z-9.883
X-18.162 Y7.471 Z-9.933
X-18.102 Y7.507 Z-9.97
X-18.038 Y7.545 Z-9.992
X-17.972 Y7.586 Z-10
G3 X-17.422 Y8.147 I-0.821 J1.353
G1 X-16.477 Y9.924
G2 X-15.928 Y10.785 I9.94 J-5.745
G1 X-15.79 Y11.041
X-15.646 Y11.366
X-15.379 Y12.129
X-15.079 Y12.88
X-14.563 Y13.502
X-13.903 Y13.968
X-13.166 Y14.3
G3 X-12.586 Y14.539 I-0.27 J1.48
G1 X-12.529 Y14.593
X-12.484 Y14.658
X-12.453 Y14.73
X-12.436 Y14.807
X-12.435 Y14.886
X-12.449 Y14.963
X-12.478 Y15.036
X-12.52 Y15.102
X-12.575 Y15.159
X-12.639 Y15.204
G3 X-13.131 Y15.124 I-0.196 J-0.349
G1 X-17.209 Y10.631
G3 X-16.754 Y9.995 I0.296 J-0.269
G1 X-16.747 Y9.998
G3 X-16.132 Y10.474 I-0.633 J1.451
G1 X-14.855 Y12.233
X-14.792 Y12.308
X-14.636 Y12.491
G2 X-12.838 Y14.339 I40.416 J-37.518
G1 X-12.629 Y14.508
X-12.287 Y14.775
X-10.987 Y15.791
X-10.82 Y15.904
X-10.43 Y16.158
X-9.58 Y16.649
G3 X-9.559 Y17.314 I-0.212 J0.339
G1 X-9.623 Y17.359 Z-9.992
X-9.684 Y17.403 Z-9.97
X-9.74 Y17.443 Z-9.933
X-9.789 Y17.478 Z-9.883
X-9.83 Y17.507 Z-9.822
X-9.86 Y17.528 Z-9.753
X-9.879 Y17.542 Z-9.678
X-9.885 Y17.546 Z-9.6
G0 Z5
X7.453 Y18.21
Z-9.2
G1 Z-9.6 F1200
X7.457 Y18.203 Z-9.678
X7.47 Y18.184 Z-9.753
X7.49 Y18.153 Z-9.822
X7.517 Y18.112 Z-9.883
X7.551 Y18.061 Z-9.933
X7.588 Y18.003 Z-9.97
X7.63 Y17.94 Z-9.992
X7.672 Y17.875 Z-10
G3 X8.253 Y17.346 I1.323 J0.868
G2 X9.851 Y16.524 I-7.486 J-16.536
G1 X10.637 Y15.995
X10.851 Y15.865
X11.137 Y15.723
X11.5 Y15.576
X12.272 Y15.336
X13.008 Y15.003
X13.604 Y14.457
X14.045 Y13.779
X14.356 Y13.033
G3 X14.591 Y12.491 I1.219 J0.207
G1 X14.647 Y12.436
X14.713 Y12.394
X14.786 Y12.364
X14.863 Y12.35
X14.942 Y12.351
X15.019 Y12.367
X15.091 Y12.398
X15.156 Y12.443
X15.211 Y12.499
X15.253 Y12.565
G3 X15.168 Y13.045 I-0.355 J0.185
G1 X10.767 Y17.065
G3 X10.136 Y16.599 I-0.27 J-0.295
G1 X10.139 Y16.592
G3 X10.637 Y15.995 I1.428 J0.683
G1 X11.554 Y15.376
G2 X12.592 Y14.507 I-4.921 J-6.934
G1 X13.408 Y13.774
G2 X14.131 Y13.041 I-3.175 J-3.855
G1 X15.222 Y11.742
X15.356 Y11.574
X15.628 Y11.208
X15.761 Y11.024
X16.671 Y9.568
G3 X17.336 Y9.571 I0.332 J0.224
G1 X17.379 Y9.636 Z-9.992
X17.421 Y9.698 Z-9.97
X17.459 Y9.756 Z-9.933
X17.492 Y9.807 Z-9.883
X17.52 Y9.848 Z-9.822
X17.54 Y9.879 Z-9.753
X17.553 Y9.898 Z-9.678
X17.557 Y9.904 Z-9.6
G0 Z5
X18.199 Y-7.396
Z-9.2
G1 Z-9.6 F1200
X18.193 Y-7.401 Z-9.678
X18.174 Y-7.414 Z-9.753
X18.144 Y-7.435 Z-9.822
X18.103 Y-7.464 Z-9.883
X18.054 Y-7.499 Z-9.933
X17.997 Y-7.539 Z-9.97
X17.936 Y-7.582 Z-9.992
X17.872 Y-7.627 Z-10
G3 X17.364 Y-8.226 I0.914 J-1.292
G2 X16.875 Y-9.247 I-9.433 J3.883
G1 X16.021 Y-10.609
X15.81 Y-10.986
X15.666 Y-11.302
X15.116 Y-12.822
X14.617 Y-13.458
X13.967 Y-13.938
X13.235 Y-14.28
X12.844 Y-14.4
X12.718 Y-14.449
X12.6 Y-14.515
X12.493 Y-14.599
G3 X12.477 Y-15.178 I0.268 J-0.297
X13.057 Y-15.164 I0.283 J0.282
G1 X17.087 Y-10.711
G3 X16.608 Y-10.087 I-0.297 J0.268
G1 X16.6 Y-10.091
G3 X16.021 Y-10.609 I0.732 J-1.403
G1 X15.772 Y-11.006
X15.396 Y-11.526
X15.249 Y-11.709
X14.019 Y-13.176
G2 X13.388 Y-13.792 I-3.92 J3.38
G1 X12.24 Y-14.826
G2 X11.554 Y-15.376 I-3.283 J3.391
G1 X9.903 Y-16.489
X9.72 Y-16.6
X9.646 Y-16.641
G3 X9.452 Y-16.957 I0.205 J-0.343
G1 X9.451 Y-16.984 Z-9.999
X9.465 Y-17.044 Z-9.99
X9.478 Y-17.102 Z-9.971
X9.49 Y-17.156 Z-9.944
X9.526 Y-17.202 Z-9.9
X9.557 Y-17.242 Z-9.846
X9.582 Y-17.273 Z-9.784
X9.599 Y-17.294 Z-9.716
X9.609 Y-17.302 Z-9.659
X9.613 Y-17.305 Z-9.6
G0 Z5
X-15.659 Y-15.216
Z-8.2
G1 Z-8.6 F1200
X-15.652 Y-15.212 Z-8.678
X-15.633 Y-15.201 Z-8.753
X-15.601 Y-15.183 Z-8.822
X-15.557 Y-15.158 Z-8.883
X-15.505 Y-15.128 Z-8.933
X-15.444 Y-15.094 Z-8.97
X-15.379 Y-15.057 Z-8.992
X-15.311 Y-15.018 Z-9
G3 X-13.527 Y-13.731 I-5.049 J8.876
G1 X-13.42 Y-13.627
G3 X-13.616 Y-12.625 I-0.882 J0.347
G2 X-14.573 Y-11.525 I6.425 J6.562
G1 X-15.405 Y-10.381
X-15.772 Y-9.865
G2 X-17.061 Y-7.422 I46.266 J25.972
G1 X-17.697 Y-5.659
G2 X-18.089 Y-4.192 I7.171 J2.702
G1 X-18.284 Y-3.276
G2 X-18.469 Y-1.992 I6.054 J1.531
G1 X-18.586 Y-0.342
X-18.591 Y-0.159
X-18.589 Y0.208
G2 X-18.415 Y2.591 I38.307 J-1.597
X-17.872 Y5.158 I56.457 J-10.598
X-17.007 Y7.541 I89.889 J-31.283
X-15.772 Y9.865 I72.747 J-37.174
G1 X-15.338 Y10.474
X-14.488 Y11.643
X-14.087 Y12.124
X-13.938 Y12.292
X-12.838 Y13.432
X-12.503 Y13.774
G2 X-10.399 Y15.425 I30.921 J-37.257
X-7.89 Y16.844 I22.465 J-36.784
G1 X-6.052 Y17.578
X-5.869 Y17.645
X-5.685 Y17.712
G2 X-3.119 Y18.339 I16.715 J-62.772
G1 X-2.751 Y18.377
X-2.568 Y18.397
X-0.917 Y18.571
X-0.734 Y18.577
X-0.367 Y18.586
G2 X2.017 Y18.489 I-0.312 J-37.007
X4.586 Y18.027 I-6.46 J-43.295
X6.931 Y17.261 I-34.155 J-108.635
X9.356 Y16.078 I-20.07 J-44.184
X11.555 Y14.579 I-31.104 J-48.014
X13.445 Y12.859 I-60.891 J-68.819
G1 X13.599 Y12.674
X14.855 Y11.178
X14.982 Y11.024
X15.11 Y10.841
G2 X16.475 Y8.643 I-37.509 J-24.819
X17.52 Y6.259 I-81.785 J-37.244
G1 X17.571 Y6.074
X18.156 Y4.034
X18.195 Y3.874
X18.28 Y3.324
X18.523 Y1.599
X18.537 Y1.491
G2 X18.544 Y-1.442 I-32.353 J-1.545
X18.168 Y-4.01 I-52.613 J6.394
G1 X17.532 Y-6.209
X17.46 Y-6.392
G2 X16.404 Y-8.777 I-37.066 J14.988
X15.022 Y-10.977 I-62.112 J37.48
X13.389 Y-12.917 I-71.705 J58.695
G1 X12.908 Y-13.359
X11.687 Y-14.459
X11.554 Y-14.575
G2 X9.171 Y-16.183 I-22.576 J30.894
X6.787 Y-17.318 I-21.731 J42.552
G1 X5.135 Y-17.852
G2 X4.035 Y-18.142 I-2.212 J6.166
G1 X2.201 Y-18.463
X2.017 Y-18.488
G2 X-0.367 Y-18.585 I-2.649 J35.853
G1 X-0.734 Y-18.577
G2 X-3.291 Y-18.308 I3.347 J44.09
X-5.685 Y-17.712 I29.792 J124.697
X-8.069 Y-16.758 I17.526 J47.264
X-10.454 Y-15.387 I21.158 J39.54
G1 X-10.708 Y-15.192
X-12.117 Y-14.092
X-12.287 Y-13.958
X-12.725 Y-13.542
X-12.838 Y-13.432
X-13.616 Y-12.626
G3 X-13.971 Y-12.521 I-0.278 J-0.288
G1 X-14.027 Y-12.546 Z-8.995
X-14.081 Y-12.57 Z-8.981
X-14.133 Y-12.593 Z-8.958
X-14.168 Y-12.634 Z-8.926
X-14.199 Y-12.67 Z-8.885
X-14.226 Y-12.701 Z-8.837
X-14.247 Y-12.726 Z-8.783
X-14.258 Y-12.749 Z-8.725
X-14.264 Y-12.762 Z-8.663
X-14.266 Y-12.767 Z-8.6
G0 Z5
X-15.252 Y-14.756
Z-7.2
G1 Z-7.6 F1200
X-15.246 Y-14.752 Z-7.678
X-15.226 Y-14.741 Z-7.753
X-15.194 Y-14.723 Z-7.822
X-15.15 Y-14.698 Z-7.883
X-15.098 Y-14.668 Z-7.933
X-15.038 Y-14.634 Z-7.97
X-14.972 Y-14.597 Z-7.992
X-14.905 Y-14.558 Z-8
G3 X-13.121 Y-13.271 I-5.049 J8.876
G1 X-13.013 Y-13.167
G3 X-13.091 Y-12.03 I-1.314 J0.481
G1 X-13.213 Y-11.875
X-13.388 Y-11.694
X-13.541 Y-11.526
G2 X-15.143 Y-9.326 I23.979 J19.145
G1 X-15.222 Y-9.188
X-16.139 Y-7.463
X-16.211 Y-7.309
X-16.322 Y-7.049
X-16.366 Y-6.942
X-17.056 Y-5.046
G2 X-17.601 Y-2.543 I33.052 J8.514
G1 X-17.64 Y-2.176
X-17.657 Y-1.992
X-17.773 Y-0.342
X-17.778 Y-0.159
X-17.775 Y0.208
X-17.769 Y0.391
X-17.654 Y2.041
X-17.635 Y2.224
X-17.59 Y2.591
X-17.56 Y2.774
X-17.21 Y4.424
X-17.166 Y4.608
X-17.056 Y5.036
X-17.016 Y5.158
X-16.415 Y6.808
X-16.346 Y6.991
X-16.186 Y7.358
X-16.139 Y7.463
X-15.22 Y9.191
X-15.11 Y9.374
G2 X-13.391 Y11.696 I21.523 J-14.137
G1 X-12.264 Y12.858
X-12.104 Y13.013
X-11.737 Y13.352
X-11.675 Y13.408
X-10.267 Y14.508
X-10.087 Y14.644
X-9.903 Y14.772
X-9.743 Y14.874
X-8.069 Y15.841
X-7.886 Y15.932
X-7.519 Y16.105
X-7.4 Y16.158
X-5.685 Y16.851
X-5.569 Y16.891
X-5.318 Y16.971
X-3.301 Y17.474
X-3.118 Y17.505
X-2.751 Y17.56
X-2.568 Y17.581
X-0.917 Y17.755
X-0.734 Y17.763
X-0.367 Y17.773
X-0.183 Y17.771
X1.467 Y17.713
X1.651 Y17.698
X2.017 Y17.666
X2.201 Y17.639
X3.851 Y17.348
X4.218 Y17.27
X4.401 Y17.231
X4.585 Y17.177
X6.235 Y16.641
X6.602 Y16.505
X6.786 Y16.437
X6.969 Y16.354
X8.62 Y15.548
X8.832 Y15.424
X9.17 Y15.226
G2 X11.004 Y13.979 I-32.17 J-49.287
X12.839 Y12.315 I-55.225 J-62.768
X14.492 Y10.315 I-34.95 J-30.583
G1 X14.618 Y10.108
X15.535 Y8.641
X15.745 Y8.274
X15.772 Y8.223
X16.566 Y6.441
X16.647 Y6.258
X16.831 Y5.708
X16.885 Y5.524
X17.305 Y4.058
X17.357 Y3.874
G2 X17.716 Y1.491 I-33.534 J-6.268
G1 X17.752 Y0.941
X17.753 Y0.758
Y-0.709
Y-0.892
X17.724 Y-1.442
G2 X17.371 Y-3.826 I-41.742 J4.964
X16.668 Y-6.209 I-40.933 J10.77
G1 X16.505 Y-6.576
X15.772 Y-8.223
X15.669 Y-8.409
X15.565 Y-8.592
X14.534 Y-10.242
X14.488 Y-10.314
G2 X12.837 Y-12.312 I-29.703 J22.86
X11.003 Y-13.977 I-41.535 J43.906
X8.622 Y-15.553 I-19.179 J26.388
G1 X6.969 Y-16.354
X6.786 Y-16.437
X6.419 Y-16.574
X6.235 Y-16.641
X4.487 Y-17.209
X4.401 Y-17.231
X4.035 Y-17.31
X3.851 Y-17.348
X2.201 Y-17.639
X2.017 Y-17.666
X1.651 Y-17.698
X1.467 Y-17.713
X-0.183 Y-17.771
X-0.367 Y-17.773
X-0.853 Y-17.759
G2 X-3.118 Y-17.515 I4.663 J53.841
X-5.502 Y-16.918 I12.938 J56.716
G1 X-5.685 Y-16.851
X-7.336 Y-16.184
X-7.519 Y-16.105
X-7.899 Y-15.926
X-8.069 Y-15.841
X-9.72 Y-14.888
X-9.826 Y-14.826
X-10.087 Y-14.64
X-10.27 Y-14.506
X-11.738 Y-13.359
X-12.128 Y-12.992
X-12.287 Y-12.833
X-13.213 Y-11.875
G3 X-13.569 Y-11.77 I-0.278 J-0.288
G1 X-13.624 Y-11.795 Z-7.995
X-13.678 Y-11.819 Z-7.981
X-13.73 Y-11.842 Z-7.958
X-13.765 Y-11.882 Z-7.926
X-13.796 Y-11.919 Z-7.885
X-13.823 Y-11.95 Z-7.837
X-13.844 Y-11.975 Z-7.783
X-13.855 Y-11.998 Z-7.725
X-13.861 Y-12.011 Z-7.663
X-13.863 Y-12.016 Z-7.6
G0 Z5
X-14.668 Y-14.188
Z-6.2
G1 Z-6.6 F1200
X-14.662 Y-14.185 Z-6.678
X-14.642 Y-14.173 Z-6.753
X-14.61 Y-14.155 Z-6.822
X-14.567 Y-14.131 Z-6.883
X-14.514 Y-14.101 Z-6.933
X-14.454 Y-14.066 Z-6.97
X-14.389 Y-14.029 Z-6.992
X-14.321 Y-13.991 Z-7
G3 X-12.537 Y-12.703 I-5.049 J8.876
G1 X-12.429 Y-12.599
G3 X-12.508 Y-11.461 I-1.327 J0.48
G1 X-12.63 Y-11.306
G2 X-13.363 Y-10.426 I3.914 J4.003
G1 X-14.163 Y-9.326
X-14.291 Y-9.142
G2 X-15.564 Y-6.759 I22.08 J13.324
X-16.35 Y-4.56 I52.54 J20.028
G1 X-16.427 Y-4.192
X-16.738 Y-2.726
X-16.77 Y-2.542
X-16.821 Y-2.176
X-16.841 Y-1.992
X-16.957 Y-0.342
X-16.961 Y-0.159
X-16.959 Y0.208
X-16.953 Y0.391
X-16.838 Y2.041
X-16.816 Y2.224
X-16.761 Y2.591
X-16.728 Y2.774
X-16.377 Y4.424
X-16.334 Y4.608
G2 X-15.463 Y6.993 I35.321 J-11.542
G1 X-15.222 Y7.454
X-14.59 Y8.641
X-14.483 Y8.824
X-14.256 Y9.191
G2 X-12.902 Y11.025 I32.355 J-22.488
G1 X-11.663 Y12.308
X-11.554 Y12.417
X-11.187 Y12.75
X-11.057 Y12.858
X-9.648 Y13.958
X-9.536 Y14.035
X-9.353 Y14.152
G2 X-7.47 Y15.241 I20.11 J-32.596
X-4.954 Y16.229 I11.993 J-26.853
G1 X-3.301 Y16.635
X-3.118 Y16.671
X-2.751 Y16.738
X-2.568 Y16.763
X-0.734 Y16.955
X-0.55 Y16.958
X-0.367 Y16.96
X-0.183 Y16.956
X1.467 Y16.898
X1.551 Y16.891
X2.017 Y16.841
X2.201 Y16.812
X3.851 Y16.521
X4.035 Y16.475
X4.401 Y16.378
X4.524 Y16.341
X6.235 Y15.784
G2 X8.62 Y14.619 I-14.718 J-33.135
G1 X9.903 Y13.752
X10.409 Y13.408
G2 X12.291 Y11.707 I-32.27 J-37.589
X13.758 Y9.925 I-30.919 J-26.959
G1 X13.887 Y9.741
X14.689 Y8.458
G2 X15.184 Y7.541 I-4.541 J-3.042
G1 X15.756 Y6.258
X15.98 Y5.708
X16.038 Y5.524
X16.511 Y3.874
X16.636 Y3.324
X16.664 Y3.141
X16.896 Y1.491
X16.935 Y1.124
X16.939 Y0.941
Y-0.892
X16.938 Y-1.076
X16.921 Y-1.259
X16.903 Y-1.442
X16.671 Y-3.092
X16.643 Y-3.276
X16.524 Y-3.826
X16.052 Y-5.476
X15.995 Y-5.659
G2 X15.036 Y-7.858 I-28.185 J10.99
G1 X14.944 Y-8.042
X14.605 Y-8.592
X13.918 Y-9.692
X13.79 Y-9.876
X13.509 Y-10.242
X13.388 Y-10.398
X12.441 Y-11.526
G2 X11.553 Y-12.39 I-5.751 J5.024
X10.454 Y-13.374 I-50.735 J55.543
G1 X10.27 Y-13.502
X9.671 Y-13.909
X8.62 Y-14.618
G2 X6.237 Y-15.789 I-17.187 J31.967
G1 X4.585 Y-16.321
X4.401 Y-16.378
X4.03 Y-16.476
X3.851 Y-16.521
X2.201 Y-16.812
X2.017 Y-16.841
X1.651 Y-16.88
X1.467 Y-16.898
X-0.183 Y-16.956
X-0.367 Y-16.958
X-0.734 Y-16.945
X-0.917 Y-16.936
X-2.568 Y-16.763
X-2.751 Y-16.738
X-3.182 Y-16.659
X-3.301 Y-16.635
X-4.952 Y-16.223
X-5.135 Y-16.169
G2 X-7.52 Y-15.214 I10.116 J28.718
G1 X-7.703 Y-15.113
X-9.17 Y-14.266
X-9.353 Y-14.149
X-9.536 Y-14.029
X-9.711 Y-13.909
X-11.187 Y-12.756
X-11.37 Y-12.588
X-11.554 Y-12.418
X-11.737 Y-12.231
X-12.63 Y-11.306
G3 X-12.986 Y-11.201 I-0.278 J-0.288
G1 X-13.042 Y-11.226 Z-6.995
X-13.096 Y-11.25 Z-6.981
X-13.147 Y-11.273 Z-6.958
X-13.182 Y-11.314 Z-6.926
X-13.214 Y-11.35 Z-6.885
X-13.24 Y-11.381 Z-6.837
X-13.262 Y-11.406 Z-6.783
X-13.272 Y-11.429 Z-6.725
X-13.278 Y-11.442 Z-6.663
X-13.281 Y-11.447 Z-6.6
G0 Z5
X-14.037 Y-13.594
Z-5.2
G1 Z-5.6 F1200
X-14.03 Y-13.591 Z-5.678
X-14.011 Y-13.579 Z-5.753
X-13.978 Y-13.561 Z-5.822
X-13.935 Y-13.536 Z-5.883
X-13.882 Y-13.506 Z-5.933
X-13.822 Y-13.472 Z-5.97
X-13.757 Y-13.435 Z-5.992
X-13.689 Y-13.397 Z-6
G3 X-11.905 Y-12.109 I-5.049 J8.876
G1 X-11.797 Y-12.005
G3 X-11.814 Y-11.036 I-1.799 J0.454
G1 X-11.9 Y-10.678
G3 X-12.167 Y-10.243 I-0.986 J-0.306
G1 X-12.471 Y-9.836
X-12.654 Y-9.586
X-13.388 Y-8.576
G2 X-14.639 Y-6.213 I20.588 J12.408
G1 X-15.098 Y-4.926
X-15.229 Y-4.559
X-15.287 Y-4.376
X-15.413 Y-3.826
X-15.725 Y-2.359
X-15.751 Y-2.176
X-15.772 Y-1.982
X-15.887 Y-0.342
X-15.891 Y-0.159
X-15.889 Y0.208
G2 X-15.746 Y2.224 I29.615 J-1.093
G1 X-15.714 Y2.408
X-15.403 Y3.874
X-15.273 Y4.424
G2 X-14.542 Y6.441 I55.951 J-19.126
X-13.342 Y8.642 I24.186 J-11.763
G1 X-12.471 Y9.838
X-12.268 Y10.108
X-12.122 Y10.291
X-11.921 Y10.504
X-10.887 Y11.574
X-10.82 Y11.637
X-10.453 Y11.967
X-10.262 Y12.124
X-9.323 Y12.858
X-9.17 Y12.975
X-8.62 Y13.35
G2 X-6.786 Y14.378 I16.109 J-26.555
G1 X-5.099 Y15.058
X-4.952 Y15.112
G2 X-2.568 Y15.692 I8.385 J-29.262
X-0.367 Y15.894 I4.206 J-33.792
G1 X-0.183 Y15.888
X1.467 Y15.83
G2 X3.873 Y15.424 I-3.708 J-29.273
X6.056 Y14.696 I-8.037 J-27.745
G1 X6.235 Y14.618
X7.589 Y13.958
X7.942 Y13.774
G2 X9.841 Y12.494 I-23.212 J-36.457
X11.557 Y10.926 I-36.257 J-41.416
G1 X12.699 Y9.558
X12.842 Y9.374
X12.972 Y9.191
X13.938 Y7.646
X13.999 Y7.541
X14.094 Y7.358
X14.343 Y6.808
X14.855 Y5.658
G2 X15.586 Y3.142 I-21.472 J-7.605
X15.872 Y0.941 I-38.759 J-6.156
G1 Y0.758
Y-0.709
X15.87 Y-0.892
G2 X15.559 Y-3.275 I-25.621 J2.138
X14.857 Y-5.66 I-25.928 J6.336
G1 X14.282 Y-6.942
X14.118 Y-7.309
X14.025 Y-7.492
X13.938 Y-7.646
X13.003 Y-9.142
X12.875 Y-9.326
X12.838 Y-9.378
X12.74 Y-9.509
X11.554 Y-10.923
G2 X9.543 Y-12.72 I-18.666 J18.869
G1 X8.578 Y-13.359
X8.03 Y-13.726
X7.886 Y-13.805
X7.688 Y-13.909
X6.235 Y-14.618
X6.176 Y-14.642
X5.685 Y-14.838
X5.502 Y-14.901
X4.401 Y-15.258
X3.851 Y-15.431
G2 X1.467 Y-15.833 I-6.593 J31.82
G1 X-0.183 Y-15.888
X-0.367 Y-15.889
X-0.734 Y-15.873
X-0.917 Y-15.863
X-2.568 Y-15.689
G2 X-5.137 Y-15.048 I4.473 J23.397
G1 X-6.786 Y-14.377
G2 X-8.804 Y-13.232 I11.653 J22.9
X-10.454 Y-11.966 I13.306 J19.051
G1 X-10.82 Y-11.632
X-10.934 Y-11.526
X-11.996 Y-10.426
X-12.104 Y-10.312
G3 X-12.459 Y-10.205 I-0.28 J-0.285
G1 X-12.514 Y-10.229 Z-5.995
X-12.569 Y-10.252 Z-5.981
X-12.62 Y-10.275 Z-5.958
X-12.656 Y-10.316 Z-5.926
X-12.688 Y-10.352 Z-5.885
X-12.715 Y-10.383 Z-5.837
X-12.736 Y-10.408 Z-5.783
X-12.747 Y-10.43 Z-5.725
X-12.753 Y-10.444 Z-5.663
X-12.755 Y-10.448 Z-5.6
G0 Z5
X-13.275 Y-12.938
Z-4.198
G1 Z-4.598 F1200
X-13.268 Y-12.934 Z-4.676
X-13.249 Y-12.923 Z-4.751
X-13.217 Y-12.904 Z-4.82
X-13.173 Y-12.88 Z-4.881
X-13.121 Y-12.85 Z-4.93
X-13.061 Y-12.815 Z-4.967
X-12.996 Y-12.778 Z-4.99
X-12.928 Y-12.739 Z-4.998
G3 X-11.147 Y-11.447 I-5.071 J8.864
G1 X-11.04 Y-11.343
G3 X-10.967 Y-10.697 I-1.057 J0.447
X-11.255 Y-9.587 I-3.203 J-0.24
G1 X-11.333 Y-9.487
X-11.554 Y-9.221
X-12.41 Y-8.042
X-12.471 Y-7.957
X-12.654 Y-7.643
X-12.741 Y-7.492
X-13.423 Y-6.209
G2 X-14.286 Y-3.826 I18.749 J8.131
X-14.661 Y-1.993 I51.219 J11.432
X-14.787 Y0.208 I24.688 J2.524
X-14.626 Y2.225 I29.815 J-1.375
G1 X-14.507 Y2.774
X-14.274 Y3.874
G2 X-13.398 Y6.258 I19.204 J-5.699
G1 X-12.813 Y7.358
X-12.713 Y7.541
X-12.471 Y7.947
X-12.375 Y8.091
X-11.554 Y9.221
G2 X-9.724 Y11.151 I14.408 J-11.828
G1 X-8.436 Y12.149
G2 X-6.418 Y13.327 I12.254 J-18.671
X-4.585 Y14.06 I10.325 J-23.154
G1 X-4.401 Y14.121
X-2.751 Y14.533
G2 X-0.184 Y14.787 I3.206 J-19.318
G1 X0.917 Y14.744
G2 X2.384 Y14.572 I-0.092 J-7.113
G1 X3.118 Y14.445
X3.301 Y14.41
G2 X5.685 Y13.654 I-4.482 J-18.259
X7.521 Y12.743 I-19.806 J-42.238
X9.215 Y11.576 I-32.097 J-48.397
G1 X10.453 Y10.459
G2 X12.106 Y8.498 I-14.341 J-13.766
X13.134 Y6.808 I-33.216 J-21.352
X13.935 Y4.975 I-44.231 J-20.422
G1 X14.094 Y4.424
X14.409 Y3.324
X14.451 Y3.141
X14.49 Y2.958
X14.522 Y2.774
X14.703 Y1.491
X14.763 Y0.941
X14.767 Y0.758
Y-0.709
X14.765 Y-0.892
G2 X14.465 Y-3.093 I-23.335 J2.054
X13.881 Y-5.109 I-36.829 J9.577
X13.059 Y-6.945 I-34.979 J14.567
X12.04 Y-8.593 I-35.89 J21.047
X10.492 Y-10.429 I-19.521 J14.887
G1 X10.083 Y-10.792
X9.269 Y-11.526
G2 X7.408 Y-12.809 I-19.102 J25.716
X5.504 Y-13.732 I-20.067 J38.951
G1 X5.135 Y-13.856
X4.952 Y-13.918
X3.851 Y-14.276
G2 X1.467 Y-14.719 I-5.016 J20.354
G1 X0.917 Y-14.744
X-0.183 Y-14.783
X-0.367
G2 X-2.751 Y-14.534 I1.013 J21.189
G1 X-3.118 Y-14.442
X-4.401 Y-14.121
G2 X-6.604 Y-13.24 I7.909 J22.956
G1 X-6.786 Y-13.134
X-7.983 Y-12.442
X-8.069 Y-12.387
X-8.436 Y-12.144
X-8.53 Y-12.076
X-9.72 Y-11.146
X-9.921 Y-10.976
G2 X-11.336 Y-9.489 I17.88 J18.442
G1 X-11.392 Y-9.437
X-11.456 Y-9.396
X-11.528 Y-9.369
X-11.603 Y-9.355
X-11.68 Y-9.356
X-11.737 Y-9.377 Z-4.993
X-11.793 Y-9.397 Z-4.979
X-11.846 Y-9.416 Z-4.956
X-11.884 Y-9.454 Z-4.923
X-11.918 Y-9.488 Z-4.883
X-11.947 Y-9.517 Z-4.835
X-11.97 Y-9.541 Z-4.781
X-11.982 Y-9.562 Z-4.723
X-11.99 Y-9.576 Z-4.661
X-11.992 Y-9.58 Z-4.598
G0 Z5
X-12.424 Y-12.225
Z-3.2
G1 Z-3.6 F1200
X-12.418 Y-12.221 Z-3.678
X-12.398 Y-12.209 Z-3.753
X-12.366 Y-12.191 Z-3.822
X-12.322 Y-12.167 Z-3.883
X-12.27 Y-12.137 Z-3.933
X-12.21 Y-12.102 Z-3.97
X-12.144 Y-12.065 Z-3.992
X-12.077 Y-12.027 Z-4
G3 X-10.293 Y-10.739 I-5.049 J8.876
G1 X-10.185 Y-10.635
G3 X-10.11 Y-10.016 I-1.041 J0.44
G1 X-10.139 Y-9.761
X-10.205 Y-9.443
X-10.321 Y-9.044
X-10.609 Y-8.288
G3 X-11.191 Y-7.325 I-3.194 J-1.272
G1 X-11.423 Y-6.942
X-11.534 Y-6.759
X-12.119 Y-5.659
G2 X-12.839 Y-3.766 I18.742 J8.213
X-13.228 Y-1.992 I31.478 J7.836
G1 X-13.289 Y-1.442
X-13.366 Y-0.342
X-13.37 Y-0.159
X-13.368 Y0.208
G2 X-13.205 Y2.121 I15.741 J-0.38
X-12.804 Y3.874 I23.178 J-4.374
X-12.105 Y5.687 I18.766 J-6.197
G1 X-11.508 Y6.808
X-11.187 Y7.316
G2 X-10.27 Y8.581 I22.726 J-15.496
G1 X-9.72 Y9.163
G2 X-8.523 Y10.29 I7.067 J-6.305
G1 X-7.703 Y10.932
X-7.575 Y11.024
X-7.519 Y11.064
X-7.336 Y11.187
X-6.235 Y11.823
X-6.008 Y11.941
X-5.646 Y12.124
X-4.401 Y12.627
X-4.218 Y12.698
G2 X-2.567 Y13.12 I5.352 J-17.518
G1 X-2.201 Y13.189
G2 X-0.183 Y13.374 I2.49 J-16.065
G1 X0.917 Y13.333
X1.284 Y13.315
X1.467 Y13.302
G2 X3.302 Y12.969 I-8.457 J-51.722
X5.137 Y12.356 I-10.953 J-35.856
X6.786 Y11.534 I-21.934 J-46.082
G1 X7.886 Y10.792
X8.071 Y10.658
X8.436 Y10.375
G2 X9.723 Y9.192 I-13.532 J-16.006
X10.926 Y7.727 I-18.528 J-16.444
X11.925 Y6.063 I-21.072 J-13.789
X12.628 Y4.425 I-38.174 J-17.335
X13.126 Y2.592 I-25.373 J-7.875
X13.358 Y0.758 I-25.193 J-4.129
X13.352 Y-0.892 I-173.382 J-0.202
X13.098 Y-2.726 I-35.926 J4.056
X12.575 Y-4.56 I-23.882 J5.813
X11.851 Y-6.209 I-28.85 J11.676
X10.692 Y-8.046 I-17.456 J9.738
G1 X9.903 Y-8.977
G2 X9.4 Y-9.508 I-3.562 J2.871
G1 X8.586 Y-10.242
X8.436 Y-10.369
X8.069 Y-10.658
X7.886 Y-10.792
X6.798 Y-11.526
G2 X4.953 Y-12.431 I-14.821 J27.875
X3.199 Y-12.995 I-17.49 J51.393
X1.467 Y-13.302 I-18.406 J98.755
G1 X0.917 Y-13.333
X-0.183 Y-13.371
X-0.367
G2 X-2.568 Y-13.124 I0.716 J16.3
G1 X-2.751 Y-13.08
X-3.851 Y-12.805
X-4.218 Y-12.694
X-4.406 Y-12.626
X-5.685 Y-12.109
X-5.763 Y-12.076
X-6.109 Y-11.892
X-6.235 Y-11.823
X-7.384 Y-11.159
G2 X-8.989 Y-9.911 I14.955 J20.889
X-10.27 Y-8.577 I23.139 J23.506
G1 X-10.4 Y-8.409
X-10.885 Y-7.743
G3 X-11.222 Y-7.59 I-0.315 J-0.246
G1 X-11.281 Y-7.606 Z-3.995
X-11.338 Y-7.622 Z-3.981
X-11.392 Y-7.638 Z-3.958
X-11.432 Y-7.674 Z-3.926
X-11.468 Y-7.705 Z-3.885
X-11.499 Y-7.733 Z-3.837
X-11.524 Y-7.755 Z-3.783
X-11.537 Y-7.775 Z-3.725
X-11.545 Y-7.788 Z-3.663
X-11.548 Y-7.792 Z-3.6
G0 Z5
X-11.425 Y-11.156
Z-2.2
G1 Z-2.6 F1200
X-11.418 Y-11.153 Z-2.678
X-11.398 Y-11.141 Z-2.753
X-11.366 Y-11.123 Z-2.822
X-11.323 Y-11.098 Z-2.883
X-11.27 Y-11.068 Z-2.933
X-11.21 Y-11.034 Z-2.97
X-11.145 Y-10.997 Z-2.992
X-11.077 Y-10.958 Z-3
G3 X-9.295 Y-9.668 I-5.062 J8.869
G1 X-9.187 Y-9.564
G3 X-9.192 Y-8.585 I-1.829 J0.481
G1 X-9.272 Y-8.235
X-9.474 Y-7.613
X-9.785 Y-6.867
G2 X-11.299 Y-3.093 I23.548 J11.643
X-11.625 Y-1.442 I24.726 J5.733
G1 X-11.701 Y-0.342
X-11.705 Y-0.159
X-11.703 Y0.208
X-11.697 Y0.391
X-11.62 Y1.491
G2 X-11.234 Y3.325 I22.086 J-3.691
X-10.508 Y5.159 I14.148 J-4.54
X-9.724 Y6.523 I11.088 J-5.465
G1 X-9.111 Y7.358
X-8.961 Y7.541
X-8.8 Y7.724
X-8.069 Y8.481
G2 X-6.511 Y9.741 I10.455 J-11.336
X-4.952 Y10.615 I11.247 J-18.23
G1 X-3.851 Y11.059
G2 X-2.017 Y11.541 I5.294 J-16.392
X-0.184 Y11.713 I2.878 J-20.867
G1 X0.734 Y11.678
X0.917 Y11.669
X1.467 Y11.618
X2.568 Y11.424
G2 X4.401 Y10.86 I-3.866 J-15.842
X6.203 Y9.926 I-6.218 J-14.199
X10.91 Y4.241 I-6.196 J-9.921
G1 X11.054 Y3.874
G2 X11.469 Y2.408 I-31.253 J-9.636
X11.691 Y0.758 I-29.019 J-4.74
X11.683 Y-0.892 I-35.822 J-0.669
X11.392 Y-2.727 I-16.937 J1.746
X10.268 Y-5.633 I-12.449 J3.149
G1 X9.683 Y-6.576
G2 X4.929 Y-10.612 I-9.652 J6.552
G1 X4.545 Y-10.792
G2 X3.117 Y-11.279 I-5.25 J13.074
G1 X2.751 Y-11.381
X2.568 Y-11.424
X1.467 Y-11.618
G2 X-0.344 Y-11.709 I-1.71 J15.946
X-2.103 Y-11.527 I1.71 J25.17
X-3.852 Y-11.06 I4.288 J19.544
X-6.598 Y-9.674 I4.293 J11.927
X-7.961 Y-8.592 I11.949 J16.454
G1 X-8.62 Y-7.911
X-8.991 Y-7.492
X-9.147 Y-7.309
X-9.72 Y-6.52
X-9.934 Y-6.209
G2 X-10.856 Y-4.376 I11.898 J7.134
G1 X-11.06 Y-3.809
G3 X-11.34 Y-3.566 I-0.372 J-0.146
G1 X-11.386 Y-3.561 Z-2.997
X-11.432 Y-3.555 Z-2.989
X-11.495 Y-3.569 Z-2.967
X-11.553 Y-3.582 Z-2.935
X-11.604 Y-3.594 Z-2.894
X-11.641 Y-3.62 Z-2.845
X-11.67 Y-3.64 Z-2.79
X-11.692 Y-3.655 Z-2.73
X-11.705 Y-3.664 Z-2.666
X-11.71 Y-3.667 Z-2.6
G0 Z5
X-10.36 Y-9.829
Z-1.2
G1 Z-1.6 F1200
X-10.353 Y-9.825 Z-1.678
X-10.334 Y-9.813 Z-1.753
X-10.302 Y-9.794 Z-1.822
X-10.259 Y-9.769 Z-1.883
X-10.208 Y-9.737 Z-1.933
X-10.148 Y-9.702 Z-1.97
X-10.084 Y-9.663 Z-1.992
X-10.017 Y-9.623 Z-2
G3 X-8.266 Y-8.292 I-5.267 J8.749
G1 X-8.16 Y-8.185
G3 X-8.161 Y-7.203 I-2.075 J0.489
G1 X-8.268 Y-6.716
X-8.508 Y-5.944
G2 X-9.61 Y-2.906 I28.77 J12.152
X-9.988 Y0.294 I10.866 J2.905
X-8.265 Y5.608 I10.103 J-0.34
X-3.207 Y9.456 I8.283 J-5.637
X8.991 Y-4.348 I3.204 J-9.459
X3.81 Y-9.228 I-9.006 J4.369
X-4.78 Y-8.766 I-3.81 J9.239
G1 X-5.433 Y-8.29
X-5.912 Y-7.639
G3 X-6.236 Y-7.309 I-0.924 J-0.581
G2 X-9.562 Y-0.893 I6.262 J7.317
X8.254 Y4.904 I9.56 J0.894
X9.592 Y-0.342 I-8.098 J-4.859
X5.687 Y-7.733 I-9.523 J0.305
X4.585 Y-8.443 I-4.903 J6.4
X-2.568 Y-9.254 I-4.582 J8.468
X-6.14 Y-7.387 I2.591 J9.305
G1 X-6.205 Y-7.347
X-6.277 Y-7.321
X-6.353 Y-7.31
X-6.43 Y-7.313
X-6.505 Y-7.33
X-6.556 Y-7.362 Z-1.995
X-6.606 Y-7.394 Z-1.981
X-6.654 Y-7.423 Z-1.958
X-6.683 Y-7.469 Z-1.926
X-6.709 Y-7.509 Z-1.885
X-6.731 Y-7.544 Z-1.837
X-6.749 Y-7.572 Z-1.783
X-6.756 Y-7.595 Z-1.725
X-6.76 Y-7.61 Z-1.663
X-6.762 Y-7.615 Z-1.6
G0 Z5
X-8.409 Y8.928
Z-0.2
G1 Z-0.6 F1200
X-8.405 Y8.922 Z-0.678
X-8.393 Y8.902 Z-0.753
X-8.374 Y8.871 Z-0.822
X-8.348 Y8.828 Z-0.883
X-8.316 Y8.777 Z-0.933
X-8.28 Y8.718 Z-0.97
X-8.241 Y8.654 Z-0.992
X-8.2 Y8.587 Z-1
G3 X-6.853 Y6.848 I8.701 J5.345
G1 X-6.746 Y6.743
G3 X-5.792 Y6.674 I0.6 J1.671
G1 X-5.384 Y6.735
X-4.598 Y6.926
X-3.828 Y7.171
X-3.057 Y7.412
X-2.275 Y7.619
G2 X0.935 Y7.809 I2.123 J-8.657
G1 X1.731 Y7.666
X2.508 Y7.444
X3.259 Y7.144
X3.975 Y6.771
X4.652 Y6.328
X5.275 Y5.814
X5.845 Y5.24
X6.355 Y4.614
X6.795 Y3.936
X7.162 Y3.215
X7.454 Y2.462
X7.668 Y1.682
X7.8 Y0.885
X7.849 Y0.078
X7.815 Y-0.729
X7.702 Y-1.53
X7.504 Y-2.313
X7.225 Y-3.071
X6.869 Y-3.797
X6.445 Y-4.486
X5.949 Y-5.124
X5.39 Y-5.707
X4.776 Y-6.233
X4.11 Y-6.691
X3.4 Y-7.077
X2.654 Y-7.388
X1.881 Y-7.624
X1.088 Y-7.779
X0.282 Y-7.847
X-0.526 Y-7.833
X-1.328 Y-7.738
X-2.117 Y-7.559
X-2.882 Y-7.301
X-3.618 Y-6.966
X-4.315 Y-6.558
X-4.967 Y-6.08
X-5.565 Y-5.536
X-6.106 Y-4.935
X-6.581 Y-4.281
X-6.986 Y-3.582
X-7.316 Y-2.844
X-7.57 Y-2.077
X-7.744 Y-1.287
X-7.835 Y-0.484
X-7.842 Y0.324
X-7.769 Y1.129
X-7.615 Y1.922
X-7.375 Y2.694
X-7.058 Y3.438
X-6.542 Y4.06
X-5.877 Y4.519
G2 X-2.017 Y5.949 I7.461 J-14.213
X4.79 Y4.062 I2.007 J-5.979
X2.568 Y-5.729 I-4.8 J-4.059
X-3.67 Y5.092 I-2.566 J5.73
X-2.018 Y5.951 I4.017 J-5.71
G1 X-1.951 Y5.988
X-1.892 Y6.038
X-1.844 Y6.098
X-1.808 Y6.166
X-1.786 Y6.239
X-1.779 Y6.316 Z-0.993
X-1.793 Y6.377 Z-0.974
X-1.806 Y6.435 Z-0.946
X-1.818 Y6.488 Z-0.909
X-1.847 Y6.528 Z-0.859
X-1.871 Y6.561 Z-0.802
X-1.888 Y6.585 Z-0.738
X-1.899 Y6.6 Z-0.67
X-1.902 Y6.605 Z-0.6
G0 Z5
X24.478 Y23.96
Z-19.2
G1 Z-19.6 F1200
X24.472 Y23.956 Z-19.678
X24.452 Y23.944 Z-19.753
X24.421 Y23.925 Z-19.822
X24.378 Y23.899 Z-19.883
X24.327 Y23.867 Z-19.933
X24.268 Y23.831 Z-19.97
X24.204 Y23.792 Z-19.992
X24.137 Y23.751 Z-20
G3 X22.394 Y22.409 I5.323 J-8.715
G1 X22.309 Y22.322
G3 X21.769 Y20.952 I3.976 J-2.36
G1 X21.617 Y20.212
G3 X21.416 Y16.988 I24.449 J-3.147
X21.394 Y6.745 I562.151 J-6.312
G2 X22.007 Y4.5 I-33.241 J-10.289
X22.424 Y1.308 I-43.833 J-7.342
X22.397 Y-1.626 I-44.963 J-1.062
G1 X22.364 Y-1.992
G2 X22.007 Y-4.439 I-41.772 J4.845
X21.672 Y-5.909 I-23.187 J4.513
G3 X21.423 Y-9.129 I19.572 J-3.135
X21.387 Y-13.978 I216.834 J-4.017
G1 X21.386 Y-19.232
X21.264 Y-19.617
X21.029 Y-19.946
X20.435 Y-20.494
X19.706 Y-20.843
X18.927 Y-21.059
G2 X15.711 Y-21.338 I-3.203 J18.248
X6.919 Y-21.38 I-6.161 J369.031
G1 X6.822 Y-21.387
X6.725 Y-21.402
G2 X4.953 Y-21.905 I-6.216 J18.537
X2.018 Y-22.372 I-7.883 J40.123
X-0.917 Y-22.444 I-2.988 J61.348
X-4.035 Y-22.093 I3.339 J43.608
G1 X-4.401 Y-22.014
G3 X-8.339 Y-21.443 I-4.33 J-15.993
X-13.996 Y-21.389 I-4.458 J-170.662
G1 X-18.846 Y-21.386
X-19.25
X-19.633 Y-21.258
X-19.96 Y-21.02
X-20.504 Y-20.422
X-20.851 Y-19.692
X-21.064 Y-18.913
G2 X-21.341 Y-15.696 I18.409 J3.202
X-21.385 Y-6.868 I394.802 J6.397
X-21.728 Y-5.659 I157.355 J45.264
G1 X-22.077 Y-4.009
G2 X-22.306 Y-2.542 I12.5 J2.706
X-22.458 Y0.208 I37.722 J3.468
X-22.217 Y3.325 I49.169 J-2.245
G3 X-21.648 Y6.136 I-73.062 J16.237
X-21.419 Y9.358 I-21.818 J3.169
X-21.387 Y19.057 I-517.865 J6.563
G1 X-21.37 Y19.259
X-21.253 Y19.645
X-21.012 Y19.97
X-20.41 Y20.509
X-19.679 Y20.853
X-18.899 Y21.064
G2 X-15.681 Y21.338 I3.2 J-18.591
X-6.927 Y21.381 I6.283 J-390.983
X-4.036 Y22.092 I23.594 J-89.658
G1 X-3.851 Y22.125
X-3.301 Y22.204
X-1.651 Y22.377
G2 X-0.183 Y22.449 I1.353 J-12.691
X2.201 Y22.343 I-0.63 J-41.255
G1 X2.568 Y22.31
G2 X5.502 Y21.774 I-6.348 J-43.014
G3 X8.712 Y21.432 I3.467 J17.304
X17.805 Y21.383 I6.339 J336.584
G1 X18.004 Y21.345
X18.19 Y21.268
X18.522 Y21.036
X19.053 Y20.427
X19.371 Y19.684
X19.556 Y18.897
G2 X19.763 Y15.674 I-21.76 J-3.019
X19.784 Y10.861 I-265.39 J-3.569
G3 X19.991 Y10.236 I1.235 J0.062
G2 X21.225 Y7.359 I-42.839 J-20.081
G1 X21.422 Y6.66
X21.638 Y5.905
G2 X22.107 Y3.875 I-12.473 J-3.946
X22.423 Y1.308 I-40.962 J-6.352
X22.372 Y-1.993 I-38.133 J-1.06
X21.998 Y-4.493 I-54.244 J6.836
X21.825 Y-5.259 I-8.209 J1.452
X21.164 Y-7.493 I-45.176 J12.151
G1 X20.97 Y-8.042
X20.54 Y-9.007
X20.335 Y-9.538
X20.188 Y-10.034
X20.036 Y-10.754
G3 X19.819 Y-13.977 I23.071 J-3.169
X19.79 Y-17.21 I151.515 J-2.974
G1 X19.683 Y-17.6
X19.488 Y-17.953
X18.968 Y-18.572
X18.284 Y-19.003
X17.528 Y-19.288
X16.741 Y-19.472
G2 X13.521 Y-19.733 I-3.352 J21.335
G3 X10.694 Y-19.782 I3.103 J-261.817
G1 X10.558 Y-19.815
G2 X8.986 Y-20.566 I-392.696 J820.582
G1 X8.705 Y-20.692
X8.62 Y-20.729
X8.069 Y-20.96
X6.631 Y-21.428
X6.419 Y-21.496
X6.235 Y-21.555
X5.881 Y-21.66
G2 X4.952 Y-21.902 I-2.775 J8.754
X2.018 Y-22.372 I-7.798 J39.303
X-0.917 Y-22.445 I-3.041 J63.313
X-4.035 Y-22.094 I3.91 J48.75
G1 X-4.372 Y-22.02
X-4.401 Y-22.014
X-4.567 Y-21.976
X-5.135 Y-21.834
G2 X-7.52 Y-21.155 I4.342 J19.778
G1 X-8.803 Y-20.633
G3 X-11.084 Y-19.99 I-3.407 J-7.73
X-15.118 Y-19.805 I-3.593 J-34.154
G1 X-15.927 Y-19.794
X-17.139 Y-19.789
X-17.534 Y-19.704
X-17.896 Y-19.524
X-18.53 Y-19.024
X-18.975 Y-18.349
X-19.271 Y-17.597
X-19.462 Y-16.811
G2 X-19.734 Y-13.593 I20.506 J3.351
G3 X-19.785 Y-10.66 I-368.018 J-5.003
G1 X-19.824 Y-10.514
G2 X-20.541 Y-9.081 I65.443 J33.621
G1 X-20.598 Y-8.959
G2 X-21.429 Y-6.677 I48.258 J18.883
G1 X-21.522 Y-6.392
X-21.579 Y-6.209
X-21.655 Y-5.925
G2 X-22.212 Y-3.275 I33.035 J8.321
G1 X-22.238 Y-3.092
X-22.288 Y-2.726
G2 X-22.458 Y0.208 I38.347 J3.694
X-22.216 Y3.325 I47.901 J-2.152
G1 X-22.105 Y3.874
X-22.066 Y4.058
X-21.957 Y4.573
X-21.824 Y5.199
X-21.792 Y5.341
G2 X-21.322 Y6.991 I10.339 J-2.051
X-20.356 Y9.529 I46.476 J-16.241
G1 X-20.21 Y10.002
X-20.059 Y10.677
G3 X-19.822 Y13.898 I-20.975 J3.163
X-19.79 Y17.131 I-138.284 J2.963
G1 X-19.706 Y17.526
X-19.527 Y17.889
X-19.028 Y18.524
X-18.354 Y18.97
X-17.602 Y19.267
X-16.817 Y19.458
G2 X-13.598 Y19.73 I3.349 J-20.444
G3 X-10.7 Y19.782 I-3.642 J286.484
G1 X-10.554 Y19.821
X-10.416 Y19.881
G2 X-9.169 Y20.484 I5.185 J-9.126
X-6.761 Y21.417 I14.775 J-34.551
G1 X-6.419 Y21.51
X-6.235 Y21.56
X-6.001 Y21.618
G2 X-3.302 Y22.212 I6.852 J-24.706
G1 X-3.269 Y22.208
X-1.517 Y22.391
G2 X-0.183 Y22.449 I1.224 J-12.861
X2.568 Y22.311 I-0.448 J-36.605
X4.733 Y21.933 I-5.361 J-37.063
X5.502 Y21.773 I-3.428 J-18.399
X8.805 Y20.664 I-9.559 J-33.946
G3 X10.442 Y20.098 I2.719 J5.21
X13.659 Y19.822 I3.15 J17.873
G1 X14.467 Y19.803
X15.275 Y19.794
X15.679 Y19.791
X16.072 Y19.696
X16.427 Y19.503
X17.044 Y18.981
X17.465 Y18.291
X17.739 Y17.531
X17.912 Y16.741
G2 X18.147 Y13.513 I-22.728 J-3.279
G3 X18.414 Y12.859 I1.094 J0.064
G1 X19.442 Y11.208
X19.551 Y11.024
X19.868 Y10.474
X19.887 Y10.439
G3 X20.549 Y10.383 I0.35 J0.193
G1 X20.598 Y10.444 Z-19.992
X20.645 Y10.502 Z-19.97
X20.688 Y10.556 Z-19.933
X20.726 Y10.604 Z-19.883
X20.757 Y10.643 Z-19.822
X20.78 Y10.672 Z-19.753
X20.794 Y10.689 Z-19.678
X20.799 Y10.695 Z-19.6
G0 Z5
X8.187 Y21.434
Z-19.2
G1 Z-19.6 F1200
X8.191 Y21.428 Z-19.678
X8.203 Y21.409 Z-19.753
X8.224 Y21.378 Z-19.822
X8.251 Y21.336 Z-19.883
X8.284 Y21.285 Z-19.933
X8.322 Y21.228 Z-19.97
X8.363 Y21.165 Z-19.992
X8.406 Y21.1 Z-20
G3 X8.986 Y20.57 I1.323 J0.868
G2 X11.372 Y19.367 I-15.148 J-32.985
G3 X12.995 Y18.62 I2.855 J4.07
G1 X13.784 Y18.442
X14.174 Y18.338
X14.538 Y18.161
X15.189 Y17.682
X15.662 Y17.027
X15.987 Y16.287
X16.127 Y15.784
X16.178 Y15.644
X16.251 Y15.513
X16.344 Y15.396
G3 X16.996 Y15.526 I0.283 J0.283
G1 X17.026 Y15.599 Z-19.992
X17.055 Y15.668 Z-19.97
X17.081 Y15.732 Z-19.933
X17.104 Y15.788 Z-19.883
X17.123 Y15.834 Z-19.822
X17.137 Y15.868 Z-19.753
X17.146 Y15.889 Z-19.678
X17.149 Y15.896 Z-19.6
G0 Z5
X11.066 Y20.103
Z-19.2
G1 Z-19.6 F1200
X11.069 Y20.096 Z-19.678
X11.079 Y20.075 Z-19.753
X11.094 Y20.042 Z-19.822
X11.116 Y19.997 Z-19.883
X11.141 Y19.942 Z-19.933
X11.171 Y19.879 Z-19.97
X11.203 Y19.812 Z-19.992
X11.236 Y19.741 Z-20
G3 X11.737 Y19.136 I1.431 J0.675
G2 X14.125 Y17.467 I-19.562 J-30.519
X15.957 Y15.792 I-51.457 J-58.141
G1 X16.322 Y15.42
G2 X18.287 Y13.042 I-27.364 J-24.611
G1 X18.317 Y12.997
G3 X18.981 Y13.032 I0.32 J0.24
G1 X19.021 Y13.1 Z-19.992
X19.059 Y13.164 Z-19.97
X19.094 Y13.223 Z-19.933
X19.125 Y13.276 Z-19.883
X19.151 Y13.318 Z-19.822
X19.17 Y13.35 Z-19.753
X19.181 Y13.37 Z-19.678
X19.185 Y13.376 Z-19.6
G0 Z5
X21.375 Y-8.178
Z-19.2
G1 Z-19.6 F1200
X21.369 Y-8.182 Z-19.678
X21.351 Y-8.195 Z-19.753
X21.32 Y-8.217 Z-19.822
X21.28 Y-8.245 Z-19.883
X21.23 Y-8.28 Z-19.933
X21.174 Y-8.32 Z-19.97
X21.113 Y-8.364 Z-19.992
X21.049 Y-8.409 Z-20
G3 X20.54 Y-9.007 I0.914 J-1.292
G2 X18.998 Y-11.931 I-16.006 J6.575
G1 X18.86 Y-12.25
X18.712 Y-12.658
X18.559 Y-13.219
X18.408 Y-14.013
X18.319 Y-14.816
X18.266 Y-15.623
X18.114 Y-15.997
X17.675 Y-16.676
X17.04 Y-17.176
X16.31 Y-17.524
X15.537 Y-17.757
G2 X13.425 Y-18.056 I-3.142 J14.572
G1 X13.275 Y-18.116
X13.135 Y-18.193
G2 X11.006 Y-19.583 I-23.058 J33.003
G1 X10.429 Y-19.867
G3 X10.362 Y-20.529 I0.188 J-0.353
G1 X10.422 Y-20.578 Z-19.992
X10.48 Y-20.626 Z-19.97
X10.533 Y-20.67 Z-19.933
X10.58 Y-20.709 Z-19.883
X10.619 Y-20.74 Z-19.822
X10.647 Y-20.764 Z-19.753
X10.665 Y-20.778 Z-19.678
X10.671 Y-20.783 Z-19.6
G0 Z5
X20.072 Y-11.004
Z-19.2
G1 Z-19.6 F1200
X20.066 Y-11.008 Z-19.678
X20.045 Y-11.018 Z-19.753
X20.013 Y-11.035 Z-19.822
X19.968 Y-11.058 Z-19.883
X19.914 Y-11.085 Z-19.933
X19.853 Y-11.117 Z-19.97
X19.786 Y-11.152 Z-19.992
X19.717 Y-11.187 Z-20
G3 X19.13 Y-11.709 I0.725 J-1.407
G2 X17.797 Y-13.695 I-16.958 J9.944
G1 X17.304 Y-14.336
X16.785 Y-14.955
G3 X16.551 Y-15.158 I0.776 J-1.136
X17.167 Y-15.668 I0.311 J-0.252
G1 X18.394 Y-14.214
G3 X17.789 Y-13.69 I-0.306 J0.258
G2 X15.835 Y-15.93 I-26.269 J20.936
X13.503 Y-17.946 I-27.574 J29.535
G1 X13.388 Y-18.023
X13.135 Y-18.193
G3 X13.161 Y-18.858 I0.235 J-0.324
G1 X13.228 Y-18.899 Z-19.992
X13.292 Y-18.938 Z-19.97
X13.351 Y-18.974 Z-19.933
X13.402 Y-19.006 Z-19.883
X13.445 Y-19.032 Z-19.822
X13.476 Y-19.051 Z-19.753
X13.496 Y-19.063 Z-19.678
X13.502 Y-19.067 Z-19.6
G0 Z5
X-8.253 Y-21.322
Z-19.2
G1 Z-19.6 F1200
X-8.258 Y-21.316 Z-19.678
X-8.271 Y-21.297 Z-19.753
X-8.293 Y-21.268 Z-19.822
X-8.323 Y-21.228 Z-19.883
X-8.359 Y-21.18 Z-19.933
X-8.401 Y-21.124 Z-19.97
X-8.446 Y-21.064 Z-19.992
X-8.493 Y-21.002 Z-20
G3 X-9.104 Y-20.509 I-1.267 J-0.948
G2 X-10.271 Y-19.969 I4.903 J12.115
G1 X-11.556 Y-19.226
G3 X-12.774 Y-18.68 I-2.568 J-4.101
G1 X-13.378 Y-18.525
X-14.175 Y-18.388
X-14.979 Y-18.307
X-15.382 Y-18.276
X-15.775 Y-18.18
X-16.139 Y-18.005
X-16.788 Y-17.524
X-17.259 Y-16.867
X-17.581 Y-16.126
X-17.796 Y-15.347
G2 X-18.062 Y-13.396 I18.605 J3.529
G1 X-18.127 Y-13.234
G3 X-18.927 Y-12.078 I-32.021 J-21.286
G1 X-19.165 Y-11.709
X-19.256 Y-11.555
X-19.872 Y-10.399
X-19.884 Y-10.376
G3 X-20.548 Y-10.333 I-0.346 J-0.2
G1 X-20.595 Y-10.395 Z-19.992
X-20.641 Y-10.454 Z-19.97
X-20.683 Y-10.509 Z-19.933
X-20.72 Y-10.557 Z-19.883
X-20.75 Y-10.597 Z-19.822
X-20.773 Y-10.626 Z-19.753
X-20.786 Y-10.644 Z-19.678
X-20.791 Y-10.65 Z-19.6
G0 Z5
X-11.017 Y-20.05
Z-19.2
G1 Z-19.6 F1200
X-11.02 Y-20.043 Z-19.678
X-11.031 Y-20.023 Z-19.753
X-11.048 Y-19.99 Z-19.822
X-11.072 Y-19.947 Z-19.883
X-11.101 Y-19.893 Z-19.933
X-11.133 Y-19.832 Z-19.97
X-11.169 Y-19.766 Z-19.992
X-11.206 Y-19.697 Z-20
G3 X-11.737 Y-19.119 I-1.394 J-0.748
G2 X-13.023 Y-18.291 I7.261 J12.692
X-15.268 Y-16.478 I30.164 J39.644
X-17.057 Y-14.6 I46.836 J46.397
G1 X-17.476 Y-14.092
X-17.617 Y-13.909
X-18.215 Y-13.086
G3 X-18.878 Y-13.135 I-0.315 J-0.246
G1 X-18.917 Y-13.203 Z-19.992
X-18.954 Y-13.268 Z-19.97
X-18.988 Y-13.328 Z-19.933
X-19.018 Y-13.381 Z-19.883
X-19.042 Y-13.424 Z-19.822
X-19.06 Y-13.457 Z-19.753
X-19.072 Y-13.476 Z-19.678
X-19.075 Y-13.483 Z-19.6
G0 Z5
X-21.338 Y8.372
Z-19.2
G1 Z-19.6 F1200
X-21.331 Y8.376 Z-19.678
X-21.313 Y8.389 Z-19.753
X-21.282 Y8.41 Z-19.822
X-21.241 Y8.439 Z-19.883
X-21.191 Y8.473 Z-19.933
X-21.134 Y8.512 Z-19.97
X-21.073 Y8.555 Z-19.992
X-21.008 Y8.599 Z-20
G3 X-20.492 Y9.191 I-0.898 J1.303
G2 X-18.986 Y12.007 I41.186 J-20.221
G1 X-18.844 Y12.331
X-18.695 Y12.755
X-18.541 Y13.337
X-18.398 Y14.133
X-18.313 Y14.936
X-18.287 Y15.34
X-18.197 Y15.734
X-18.028 Y16.101
X-17.558 Y16.758
X-16.907 Y17.237
X-16.168 Y17.566
X-15.39 Y17.784
G2 X-13.42 Y18.057 I3.487 J-17.924
G3 X-12.839 Y18.417 I-0.792 J1.932
G1 X-12.287 Y18.799
G2 X-10.416 Y19.881 I63.522 J-107.739
G3 X-10.373 Y20.544 I-0.2 J0.346
G1 X-10.435 Y20.592 Z-19.992
X-10.495 Y20.637 Z-19.97
X-10.55 Y20.68 Z-19.933
X-10.598 Y20.716 Z-19.883
X-10.637 Y20.747 Z-19.822
X-10.667 Y20.769 Z-19.753
X-10.685 Y20.783 Z-19.678
X-10.691 Y20.788 Z-19.6
G0 Z5
X-20.061 Y11.044
Z-19.2
G1 Z-19.6 F1200
X-20.054 Y11.048 Z-19.678
X-20.034 Y11.059 Z-19.753
X-20.001 Y11.076 Z-19.822
X-19.957 Y11.099 Z-19.883
X-19.904 Y11.127 Z-19.933
X-19.843 Y11.159 Z-19.97
X-19.776 Y11.194 Z-19.992
X-19.707 Y11.231 Z-20
G3 X-19.125 Y11.758 I-0.738 J1.4
G1 X-18.89 Y12.142
G2 X-17.056 Y14.616 I31.814 J-21.662
X-14.858 Y16.847 I31.969 J-29.302
X-13.101 Y18.221 I51.888 J-64.536
G3 X-12.955 Y18.561 I-0.253 J0.31
G1 X-12.973 Y18.619 Z-19.995
X-12.99 Y18.676 Z-19.981
X-13.007 Y18.73 Z-19.958
X-13.043 Y18.77 Z-19.926
X-13.076 Y18.805 Z-19.885
X-13.104 Y18.835 Z-19.837
X-13.126 Y18.86 Z-19.783
X-13.147 Y18.873 Z-19.725
X-13.16 Y18.881 Z-19.663
X-13.164 Y18.883 Z-19.6
G0 Z5
X17.443 Y17.948
Z-18.2
G1 Z-18.6 F1200
X17.438 Y17.942 Z-18.678
X17.423 Y17.925 Z-18.753
X17.398 Y17.898 Z-18.822
X17.365 Y17.861 Z-18.883
X17.324 Y17.816 Z-18.933
X17.278 Y17.764 Z-18.97
X17.228 Y17.709 Z-18.992
X17.176 Y17.651 Z-19
G3 X15.89 Y15.866 I7.594 J-6.828
G1 X15.865 Y15.819
X15.866 Y15.765
G3 X16.352 Y15.242 I5.026 J4.178
G1 X17.789 Y13.527
X17.885 Y13.408
X18.162 Y13.041
X18.288 Y12.858
X19.44 Y11.013
X19.766 Y10.474
X20.016 Y9.924
X20.832 Y8.091
X21.054 Y7.541
X21.09 Y7.433
X21.796 Y4.974
X21.824 Y4.87
X21.885 Y4.608
G2 X22.319 Y1.491 I-61.125 J-10.095
X22.309 Y-1.626 I-82.592 J-1.31
X21.893 Y-4.559 I-141.872 J18.629
G1 X21.824 Y-4.868
X21.81 Y-4.926
X21.09 Y-7.434
X21.069 Y-7.492
X20.854 Y-8.042
X19.99 Y-9.983
X19.79 Y-10.426
G2 X18.199 Y-12.992 I-59.707 J35.235
G1 X17.926 Y-13.359
G2 X16.07 Y-15.561 I-49.829 J40.106
X13.757 Y-17.64 I-51.219 J54.665
X11.122 Y-19.41 I-50.583 J72.447
G1 X11.004 Y-19.469
X8.803 Y-20.542
X8.62 Y-20.629
X8.069 Y-20.849
X5.685 Y-21.624
X5.502 Y-21.67
X5.135 Y-21.758
X4.952 Y-21.794
X2.751 Y-22.182
X2.568 Y-22.207
X2.201 Y-22.251
X2.017 Y-22.266
X-0.186 Y-22.342
X-0.367 Y-22.347
X-0.734 Y-22.349
X-0.917 Y-22.348
G2 X-4.036 Y-22.002 I6.689 J74.571
X-6.97 Y-21.257 I37.191 J152.649
G1 X-7.152 Y-21.186
X-9.281 Y-20.326
X-9.72 Y-20.139
X-9.903 Y-20.056
X-10.087 Y-19.952
X-12.104 Y-18.787
X-12.291 Y-18.676
X-12.838 Y-18.297
X-14.488 Y-17.008
X-14.672 Y-16.863
X-15.11 Y-16.476
X-15.222 Y-16.372
X-16.892 Y-14.642
X-17.056 Y-14.467
X-17.349 Y-14.092
X-17.422 Y-13.997
X-18.818 Y-12.076
X-18.89 Y-11.964
X-19.073 Y-11.67
X-19.153 Y-11.526
X-20.357 Y-9.262
X-20.408 Y-9.143
G2 X-21.488 Y-6.209 I53.364 J21.301
G1 X-21.618 Y-5.659
X-22.124 Y-3.276
X-22.146 Y-3.092
X-22.191 Y-2.662
X-22.353 Y-0.342
X-22.358 Y-0.159
X-22.356 Y0.208
X-22.35 Y0.391
X-22.191 Y2.662
X-22.181 Y2.774
X-22.138 Y3.141
X-22.114 Y3.324
X-21.608 Y5.708
X-21.472 Y6.258
X-21.457 Y6.311
X-20.61 Y8.641
X-20.537 Y8.824
X-20.357 Y9.258
X-20.297 Y9.374
X-19.073 Y11.677
X-18.89 Y11.966
X-18.783 Y12.124
X-17.422 Y13.997
X-17.314 Y14.141
X-17.056 Y14.468
X-17.021 Y14.508
X-15.222 Y16.372
X-15.062 Y16.524
X-14.672 Y16.863
X-14.638 Y16.891
X-12.838 Y18.297
X-12.287 Y18.678
X-12.213 Y18.724
X-9.989 Y20.008
G2 X-9.16 Y20.373 I3.62 J-7.099
G1 X-7.152 Y21.185
X-6.969 Y21.256
G2 X-3.852 Y22.035 I21.006 J-77.357
X-0.734 Y22.356 I8.679 J-69.157
X2.201 Y22.251 I-2.193 J-102.385
G1 X2.568 Y22.207
X2.751 Y22.182
X4.952 Y21.794
X5.135 Y21.758
X5.55 Y21.658
X5.685 Y21.624
X8.069 Y20.849
X8.436 Y20.705
X8.62 Y20.632
X11.026 Y19.458
X11.187 Y19.361
G2 X13.754 Y17.64 I-30.772 J-48.672
X15.894 Y15.721 I-41.735 J-48.695
G1 X15.954 Y15.673
X16.022 Y15.638
X16.096 Y15.617
X16.173 Y15.61
X16.249 Y15.618
X16.304 Y15.643 Z-18.995
X16.358 Y15.667 Z-18.981
X16.41 Y15.69 Z-18.958
X16.444 Y15.732 Z-18.926
X16.475 Y15.768 Z-18.885
X16.502 Y15.8 Z-18.837
X16.523 Y15.825 Z-18.783
X16.533 Y15.848 Z-18.725
X16.54 Y15.861 Z-18.663
X16.542 Y15.866 Z-18.6
G0 Z5
X17.978 Y17.387
Z-17.2
G1 Z-17.6 F1200
X17.972 Y17.383 Z-17.678
X17.953 Y17.37 Z-17.753
X17.922 Y17.35 Z-17.822
X17.881 Y17.322 Z-17.883
X17.83 Y17.289 Z-17.933
X17.773 Y17.25 Z-17.97
X17.71 Y17.209 Z-17.992
X17.645 Y17.166 Z-18
G3 X15.955 Y15.757 I5.656 J-8.503
G1 X15.855 Y15.645
X15.85 Y15.612
X15.858 Y15.579
X16.173 Y15.242
X17.606 Y13.532
X17.707 Y13.408
X17.987 Y13.041
X18.126 Y12.858
X19.44 Y10.755
X19.61 Y10.474
X19.866 Y9.924
X20.682 Y8.091
X20.91 Y7.541
G2 X21.787 Y4.426 I-61.141 J-18.897
X22.183 Y1.491 I-141.751 J-20.614
X22.172 Y-1.626 I-82.17 J-1.26
X21.752 Y-4.559 I-144.854 J19.216
G1 X21.641 Y-5.014
X21.614 Y-5.109
X20.983 Y-7.309
X20.926 Y-7.492
G2 X19.623 Y-10.449 I-49.156 J19.897
G1 X19.417 Y-10.792
X18.156 Y-12.81
X17.973 Y-13.057
X17.747 Y-13.359
X17.597 Y-13.542
X16.213 Y-15.192
X16.139 Y-15.274
X15.87 Y-15.559
X15.772 Y-15.652
X14.043 Y-17.209
X13.609 Y-17.576
G2 X11.004 Y-19.314 I-35.787 J50.808
G1 X10.814 Y-19.409
X8.62 Y-20.479
X8.436 Y-20.566
X8.253 Y-20.638
X8.069 Y-20.705
X5.685 Y-21.48
X5.502 Y-21.527
X5.135 Y-21.619
X4.952 Y-21.654
X2.751 Y-22.042
X2.568 Y-22.069
X2.201 Y-22.113
X2.017 Y-22.128
X-0.183 Y-22.205
X-0.367 Y-22.21
X-0.734 Y-22.212
X-0.917 Y-22.21
G2 X-4.036 Y-21.862 I6.451 J72.029
G1 X-4.298 Y-21.792
X-6.602 Y-21.218
X-6.786 Y-21.17
G2 X-9.906 Y-19.906 I19.245 J51.979
G1 X-11.37 Y-19.053
X-12.104 Y-18.629
X-12.287 Y-18.519
X-12.654 Y-18.261
X-12.838 Y-18.124
X-14.488 Y-16.834
X-14.672 Y-16.689
X-14.918 Y-16.476
X-15.038 Y-16.364
X-16.701 Y-14.642
X-16.874 Y-14.459
X-17.043 Y-14.276
X-17.239 Y-14.016
X-18.523 Y-12.249
X-18.779 Y-11.892
X-18.896 Y-11.709
X-18.998 Y-11.526
X-20.173 Y-9.315
X-20.255 Y-9.142
X-20.408 Y-8.776
X-20.482 Y-8.592
X-21.282 Y-6.392
X-21.344 Y-6.209
X-21.478 Y-5.659
X-21.984 Y-3.276
X-22.007 Y-3.086
X-22.047 Y-2.726
X-22.062 Y-2.542
X-22.215 Y-0.342
X-22.22 Y-0.159
X-22.218 Y0.208
X-22.212 Y0.391
X-22.058 Y2.591
X-22.043 Y2.774
X-21.998 Y3.141
X-21.974 Y3.324
X-21.468 Y5.708
X-21.328 Y6.258
X-21.265 Y6.441
X-20.464 Y8.641
X-20.389 Y8.824
X-20.231 Y9.191
G2 X-18.868 Y11.758 I60.074 J-30.241
X-17.003 Y14.327 I56.445 J-39.034
X-14.869 Y16.527 I66.296 J-62.151
G1 X-14.65 Y16.708
X-12.773 Y18.174
X-12.654 Y18.265
X-12.256 Y18.541
X-10.032 Y19.824
G2 X-9.537 Y20.074 I1.825 J-3.009
X-6.787 Y21.172 I45.712 J-110.482
X-3.852 Y21.897 I28.246 J-107.978
X-0.734 Y22.218 I8.73 J-69.571
X2.201 Y22.113 I-1.607 J-86.036
G1 X2.568 Y22.069
X2.751 Y22.042
X4.952 Y21.654
X5.135 Y21.619
X5.502 Y21.527
X5.685 Y21.48
X8.069 Y20.705
G2 X8.986 Y20.3 I-2.26 J-6.348
G1 X10.82 Y19.405
X11.004 Y19.314
X11.077 Y19.274
X11.642 Y18.908
X13.388 Y17.73
X13.539 Y17.624
X13.984 Y17.258
X14.121 Y17.138
X15.821 Y15.608
X15.877 Y15.551
G3 X16.233 Y15.449 I0.276 J0.289
G1 X16.288 Y15.473 Z-17.995
X16.342 Y15.498 Z-17.981
X16.394 Y15.521 Z-17.958
X16.428 Y15.562 Z-17.926
X16.46 Y15.599 Z-17.885
X16.486 Y15.63 Z-17.837
X16.507 Y15.656 Z-17.783
X16.518 Y15.678 Z-17.725
X16.524 Y15.692 Z-17.663
X16.526 Y15.696 Z-17.6
G0 Z5
X17.98 Y17.196
Z-16.2
G1 Z-16.6 F1200
X17.973 Y17.192 Z-16.678
X17.954 Y17.18 Z-16.753
X17.924 Y17.159 Z-16.822
X17.882 Y17.132 Z-16.883
X17.831 Y17.099 Z-16.933
X17.774 Y17.06 Z-16.97
X17.711 Y17.019 Z-16.992
X17.646 Y16.976 Z-17
G3 X15.951 Y15.573 I5.627 J-8.522
G1 X15.851 Y15.462
X15.845 Y15.429
X15.852 Y15.397
G2 X17.968 Y12.861 I-62.722 J-54.503
G1 X19.44 Y10.496
G2 X20.833 Y7.361 I-47.634 J-23.053
X21.605 Y4.608 I-145.259 J-42.196
X22.044 Y1.491 I-73.24 J-11.912
X22.034 Y-1.626 I-76.834 J-1.306
X21.617 Y-4.56 I-173.196 J23.11
X20.782 Y-7.492 I-67.572 J17.651
X19.442 Y-10.496 I-49.384 J20.235
G1 X19.026 Y-11.159
X17.995 Y-12.809
X17.973 Y-12.841
X17.717 Y-13.176
X17.606 Y-13.319
X16.034 Y-15.192
G2 X15.405 Y-15.798 I-4.257 J3.793
G1 X14.041 Y-17.026
X13.571 Y-17.421
X13.388 Y-17.565
X11.554 Y-18.802
G2 X10.453 Y-19.431 I-3.618 J5.055
G1 X8.803 Y-20.237
X8.617 Y-20.326
X8.069 Y-20.561
X5.685 Y-21.336
X5.502 Y-21.384
X5.135 Y-21.479
X4.952 Y-21.515
X2.751 Y-21.903
X2.568 Y-21.93
X2.198 Y-21.976
X2.017 Y-21.991
X-0.183 Y-22.068
X-0.367 Y-22.073
X-0.734 Y-22.074
X-0.917 Y-22.072
G2 X-3.851 Y-21.759 I12.644 J132.162
X-6.971 Y-20.967 I16.238 J70.515
G1 X-7.519 Y-20.742
X-9.353 Y-20.001
X-9.449 Y-19.959
X-9.842 Y-19.776
X-9.903 Y-19.741
X-12.104 Y-18.47
X-12.287 Y-18.36
X-12.471 Y-18.232
G2 X-14.719 Y-16.476 I61.919 J81.564
X-16.689 Y-14.448 I37.97 J38.872
G1 X-17.011 Y-14.092
G2 X-18.73 Y-11.709 I55.349 J41.721
G1 X-18.843 Y-11.526
X-20.012 Y-9.326
X-20.101 Y-9.142
X-20.26 Y-8.776
X-20.336 Y-8.592
X-21.136 Y-6.392
X-21.203 Y-6.209
X-21.249 Y-6.026
X-21.338 Y-5.659
X-21.844 Y-3.276
X-21.867 Y-3.092
X-21.909 Y-2.726
X-21.924 Y-2.542
X-22.078 Y-0.342
X-22.083 Y-0.159
X-22.081 Y0.208
X-22.075 Y0.391
X-21.921 Y2.591
X-21.905 Y2.774
X-21.859 Y3.141
X-21.834 Y3.324
X-21.327 Y5.708
X-21.238 Y6.074
X-21.185 Y6.258
X-20.318 Y8.641
X-20.24 Y8.824
X-20.077 Y9.191
X-19.987 Y9.374
X-18.817 Y11.574
X-18.706 Y11.749
X-18.339 Y12.268
X-17.056 Y14.035
X-16.971 Y14.141
X-16.814 Y14.324
X-16.689 Y14.458
X-15.222 Y15.977
X-14.855 Y16.345
X-14.672 Y16.516
X-13.958 Y17.074
X-12.549 Y18.174
X-12.471 Y18.235
X-12.287 Y18.361
G2 X-9.722 Y19.834 I42.314 J-70.703
X-6.786 Y21.024 I21.579 J-49.039
X-3.851 Y21.756 I26.229 J-98.929
G1 X-3.301 Y21.823
X-1.1 Y22.053
G2 X-0.184 Y22.066 I0.541 J-5.838
G1 X2.017 Y21.991
X2.201 Y21.975
X2.568 Y21.93
X2.751 Y21.903
X4.952 Y21.515
X5.135 Y21.479
X5.502 Y21.384
X5.685 Y21.336
X8.069 Y20.561
X8.62 Y20.325
G2 X11.117 Y19.094 I-29.855 J-63.719
G1 X11.394 Y18.908
X11.554 Y18.802
X13.388 Y17.565
X13.547 Y17.441
G2 X15.871 Y15.369 I-34.22 J-40.717
G3 X16.227 Y15.266 I0.276 J0.289
G1 X16.282 Y15.291 Z-16.995
X16.336 Y15.315 Z-16.981
X16.388 Y15.338 Z-16.958
X16.423 Y15.38 Z-16.926
X16.454 Y15.416 Z-16.885
X16.48 Y15.448 Z-16.837
X16.502 Y15.473 Z-16.783
X16.512 Y15.495 Z-16.725
X16.518 Y15.509 Z-16.663
X16.52 Y15.513 Z-16.6
G0 Z5
X17.881 Y17.074
Z-15.2
G1 Z-15.6 F1200
X17.875 Y17.07 Z-15.678
X17.856 Y17.057 Z-15.753
X17.825 Y17.037 Z-15.822
X17.783 Y17.01 Z-15.883
X17.732 Y16.977 Z-15.933
X17.674 Y16.939 Z-15.97
X17.611 Y16.898 Z-15.992
X17.546 Y16.855 Z-16
G3 X15.843 Y15.463 I5.575 J-8.556
G1 X15.742 Y15.352
X15.727 Y15.251
X15.749 Y15.152
X15.805 Y15.066
G2 X17.654 Y12.859 I-187.988 J-159.323
G1 X18.006 Y12.308
X19.153 Y10.474
X19.345 Y10.108
G2 X20.542 Y7.412 I-53.617 J-25.415
X21.342 Y4.608 I-86.983 J-26.318
X21.786 Y1.491 I-55.807 J-9.549
X21.777 Y-1.626 I-63.064 J-1.376
X21.356 Y-4.56 I-101.516 J13.06
X20.514 Y-7.494 I-74.568 J19.811
G1 X20.275 Y-8.042
X19.44 Y-9.918
X19.372 Y-10.059
X19.183 Y-10.426
X18.037 Y-12.259
X17.688 Y-12.809
G2 X15.773 Y-15.103 I-86.355 J70.156
G1 X15.689 Y-15.192
G2 X13.447 Y-17.21 I-84.947 J92.104
G1 X12.915 Y-17.576
X11.187 Y-18.741
X11.002 Y-18.859
G2 X8.069 Y-20.291 I-21.967 J41.28
X5.319 Y-21.182 I-58.435 J175.598
G1 X5.135 Y-21.222
X5.029 Y-21.242
X2.751 Y-21.644
X2.568 Y-21.671
X2.201 Y-21.719
X2.017 Y-21.736
X-0.183 Y-21.813
X-0.367 Y-21.817
X-0.734 Y-21.818
X-0.917 Y-21.816
X-3.118 Y-21.585
X-3.301 Y-21.566
X-3.851 Y-21.494
G2 X-6.96 Y-20.699 I12.527 J55.455
G1 X-8.986 Y-19.874
G2 X-9.903 Y-19.446 I3.002 J7.625
G1 X-11.921 Y-18.282
X-12.104 Y-18.175
G2 X-14.674 Y-16.176 I31.126 J42.673
X-16.69 Y-14.081 I120.869 J118.302
X-18.524 Y-11.563 I44.393 J34.26
X-19.997 Y-8.777 I54.276 J30.477
G1 X-20.064 Y-8.592
X-20.907 Y-6.277
X-20.929 Y-6.209
X-21.077 Y-5.659
X-21.584 Y-3.276
X-21.608 Y-3.092
X-21.653 Y-2.726
X-21.668 Y-2.542
X-21.824 Y-0.318
X-21.827 Y-0.159
X-21.824 Y0.318
X-21.665 Y2.591
X-21.649 Y2.774
X-21.6 Y3.141
X-21.573 Y3.324
X-21.066 Y5.708
X-20.907 Y6.274
X-20.847 Y6.441
X-20.046 Y8.641
X-19.99 Y8.782
X-19.791 Y9.191
G2 X-18.512 Y11.575 I51.054 J-25.872
X-16.691 Y14.085 I57.702 J-39.946
G1 X-16.462 Y14.324
X-15.038 Y15.8
X-14.672 Y16.173
X-14.476 Y16.341
G2 X-12.103 Y18.178 I39.887 J-49.071
G1 X-11.921 Y18.282
X-9.884 Y19.458
X-9.72 Y19.541
X-9.353 Y19.719
X-9.17 Y19.8
X-6.969 Y20.688
X-6.824 Y20.741
G2 X-3.851 Y21.494 I16.457 J-58.751
G1 X-3.301 Y21.566
X-1.1 Y21.797
G2 X-0.367 Y21.819 I0.515 J-5.009
G1 X2.017 Y21.736
X2.201 Y21.719
X2.672 Y21.658
X5.135 Y21.223
X5.545 Y21.108
X5.685 Y21.067
X7.886 Y20.352
X8.069 Y20.291
X8.62 Y20.042
X10.453 Y19.148
X11.004 Y18.859
X11.187 Y18.741
X12.843 Y17.624
G2 X13.938 Y16.775 I-3.366 J-5.472
G1 X15.405 Y15.454
X15.64 Y15.241
X15.805 Y15.066
G3 X16.159 Y14.957 I0.281 J0.285
G1 X16.215 Y14.981 Z-15.995
X16.269 Y15.005 Z-15.981
X16.321 Y15.027 Z-15.958
X16.357 Y15.068 Z-15.926
X16.388 Y15.104 Z-15.885
X16.415 Y15.135 Z-15.837
X16.437 Y15.16 Z-15.783
X16.448 Y15.182 Z-15.725
X16.454 Y15.195 Z-15.663
X16.456 Y15.2 Z-15.6
G0 Z5
X17.67 Y16.875
Z-14.2
G1 Z-14.6 F1200
X17.663 Y16.871 Z-14.678
X17.644 Y16.859 Z-14.753
X17.613 Y16.839 Z-14.822
X17.571 Y16.813 Z-14.883
X17.519 Y16.78 Z-14.933
X17.461 Y16.743 Z-14.97
X17.398 Y16.703 Z-14.992
X17.332 Y16.661 Z-15
G3 X15.611 Y15.29 I5.467 J-8.625
G1 X15.508 Y15.181
X15.498 Y15.078
X15.524 Y14.977
X15.583 Y14.892
X15.599 Y14.874
X15.772 Y14.673
X17.295 Y12.858
X17.606 Y12.421
X17.792 Y12.124
X18.823 Y10.474
X19.073 Y10.021
X19.126 Y9.924
X19.212 Y9.741
X20.11 Y7.724
G2 X20.427 Y6.807 I-5.649 J-2.467
G1 X20.907 Y5.139
X21.055 Y4.608
G2 X21.504 Y1.491 I-50.296 J-8.851
X21.496 Y-1.626 I-55.141 J-1.409
X21.091 Y-4.468 I-253.838 J34.686
X20.215 Y-7.494 I-67.858 J18.024
G1 X19.969 Y-8.042
X19.234 Y-9.692
X19.149 Y-9.876
X18.89 Y-10.36
X18.853 Y-10.426
X17.606 Y-12.421
X17.336 Y-12.809
X15.772 Y-14.672
X15.589 Y-14.889
X15.468 Y-15.009
X15.278 Y-15.192
X13.446 Y-16.842
X13.388 Y-16.893
X13.221 Y-17.026
X12.838 Y-17.291
X11.056 Y-18.492
X11.004 Y-18.525
X10.637 Y-18.741
G2 X8.069 Y-19.993 I-40.427 J79.684
X5.136 Y-20.935 I-22.324 J64.466
G1 X4.952 Y-20.972
X2.751 Y-21.36
X2.568 Y-21.388
X2.201 Y-21.439
X2.017 Y-21.456
X-0.183 Y-21.533
X-0.367 Y-21.537
X-0.734 Y-21.538
X-0.917 Y-21.535
X-3.301 Y-21.285
X-3.851 Y-21.208
X-4.035 Y-21.166
X-6.419 Y-20.572
X-6.786 Y-20.455
X-6.969 Y-20.387
X-9.17 Y-19.498
G2 X-9.902 Y-19.123 I1.879 J4.568
G1 X-11.632 Y-18.126
X-11.737 Y-18.06
X-12.207 Y-17.759
X-12.287 Y-17.701
X-14.121 Y-16.268
X-14.323 Y-16.109
X-14.519 Y-15.926
X-14.672 Y-15.777
X-16.322 Y-14.068
X-16.465 Y-13.909
X-16.747 Y-13.542
X-16.886 Y-13.359
X-18.156 Y-11.611
X-18.217 Y-11.526
X-18.427 Y-11.159
X-18.53 Y-10.976
X-19.44 Y-9.264
X-19.501 Y-9.142
X-19.682 Y-8.776
X-19.766 Y-8.592
X-20.568 Y-6.392
X-20.632 Y-6.209
X-20.791 Y-5.659
X-21.298 Y-3.276
X-21.324 Y-3.092
X-21.372 Y-2.726
X-21.388 Y-2.542
X-21.542 Y-0.342
X-21.547 Y-0.159
X-21.545 Y0.208
X-21.539 Y0.391
X-21.385 Y2.591
X-21.368 Y2.774
X-21.315 Y3.141
X-21.287 Y3.324
X-20.78 Y5.708
X-20.615 Y6.258
X-20.54 Y6.468
X-19.882 Y8.274
X-19.747 Y8.641
X-19.661 Y8.824
X-19.44 Y9.264
X-18.504 Y11.024
X-18.401 Y11.208
X-18.295 Y11.391
X-18.182 Y11.574
X-16.851 Y13.408
X-16.689 Y13.62
X-16.427 Y13.958
X-16.251 Y14.141
X-14.658 Y15.791
X-14.488 Y15.947
X-14.121 Y16.262
X-14.028 Y16.341
X-12.287 Y17.701
X-12.131 Y17.808
X-11.737 Y18.06
G2 X-9.353 Y19.422 I24.557 J-40.211
G1 X-9.27 Y19.458
X-6.969 Y20.387
X-6.786 Y20.454
X-6.419 Y20.564
X-6.235 Y20.617
X-4.035 Y21.166
X-3.851 Y21.211
X-3.668 Y21.238
X-3.301 Y21.285
X-0.917 Y21.535
X-0.734 Y21.538
X-0.367 Y21.537
X-0.183 Y21.533
X2.017 Y21.456
X2.201 Y21.439
X2.568 Y21.388
X2.751 Y21.36
X4.952 Y20.972
X5.135 Y20.933
G2 X8.069 Y19.992 I-15.312 J-52.769
G1 X8.62 Y19.731
X10.453 Y18.837
X10.654 Y18.724
X11.004 Y18.524
X11.187 Y18.404
X12.886 Y17.258
X13.204 Y17.041
X13.388 Y16.891
X13.595 Y16.708
X15.224 Y15.241
X15.419 Y15.058
X15.583 Y14.892
G3 X15.94 Y14.792 I0.274 J0.291
G1 X15.995 Y14.817 Z-14.995
X16.049 Y14.842 Z-14.981
X16.1 Y14.865 Z-14.958
X16.135 Y14.907 Z-14.926
X16.165 Y14.943 Z-14.885
X16.192 Y14.975 Z-14.837
X16.213 Y15 Z-14.783
X16.223 Y15.023 Z-14.725
X16.229 Y15.036 Z-14.663
X16.231 Y15.041 Z-14.6
G0 Z5
X17.451 Y16.684
Z-13.2
G1 Z-13.6 F1200
X17.445 Y16.68 Z-13.678
X17.426 Y16.667 Z-13.753
X17.395 Y16.647 Z-13.822
X17.354 Y16.62 Z-13.883
X17.303 Y16.586 Z-13.933
X17.245 Y16.548 Z-13.97
X17.183 Y16.507 Z-13.992
X17.118 Y16.464 Z-14
G3 X15.424 Y15.06 I5.63 J-8.52
G1 X15.323 Y14.949
X15.313 Y14.844
X15.338 Y14.742
X15.395 Y14.654
X15.405 Y14.642
X16.903 Y12.858
X17.056 Y12.67
X17.319 Y12.308
X17.438 Y12.124
X18.469 Y10.474
X18.797 Y9.925
G2 X20.011 Y7.175 I-56.198 J-26.461
X20.788 Y4.424 I-75.674 J-22.853
X21.205 Y1.491 I-60.898 J-10.161
X21.197 Y-1.626 I-62.12 J-1.395
X20.763 Y-4.56 I-86.67 J11.338
X19.991 Y-7.23 I-280.072 J79.478
G1 X19.959 Y-7.309
X19.885 Y-7.492
X18.89 Y-9.728
X18.823 Y-9.876
X18.706 Y-10.078
X18.499 Y-10.426
X17.422 Y-12.149
X17.35 Y-12.259
X17.056 Y-12.669
X16.944 Y-12.809
X15.559 Y-14.459
X15.403 Y-14.642
X15.234 Y-14.826
X14.83 Y-15.192
X13.571 Y-16.326
X13.402 Y-16.476
X12.838 Y-16.929
X11.004 Y-18.166
X10.772 Y-18.309
X10.453 Y-18.503
X8.436 Y-19.487
G2 X7.219 Y-19.957 I-3.005 J5.973
G1 X5.318 Y-20.576
X5.135 Y-20.627
G2 X2.018 Y-21.16 I-10.024 J49.183
G1 X-0.183 Y-21.233
X-0.367 Y-21.237
X-0.734 Y-21.236
X-0.917 Y-21.233
X-3.301 Y-20.983
X-3.851 Y-20.9
X-3.958 Y-20.876
X-6.235 Y-20.308
X-6.419 Y-20.251
X-6.786 Y-20.132
X-6.969 Y-20.064
X-8.803 Y-19.322
G2 X-9.902 Y-18.775 I2.146 J5.691
G1 X-11.666 Y-17.759
X-11.921 Y-17.6
G2 X-14.122 Y-15.884 I64.497 J85.001
G1 X-14.28 Y-15.742
X-14.672 Y-15.345
X-15.955 Y-14.015
X-16.051 Y-13.909
X-16.374 Y-13.542
X-16.515 Y-13.359
X-17.789 Y-11.605
X-18.156 Y-11.036
G2 X-19.444 Y-8.594 I71.44 J39.236
G1 X-19.647 Y-8.042
X-20.248 Y-6.392
X-20.313 Y-6.209
X-20.484 Y-5.659
X-20.64 Y-4.926
X-20.991 Y-3.276
X-21.019 Y-3.092
X-21.07 Y-2.726
X-21.087 Y-2.542
X-21.241 Y-0.342
X-21.246 Y-0.159
X-21.244 Y0.208
X-21.238 Y0.391
X-21.084 Y2.591
X-21.066 Y2.774
X-21.01 Y3.141
X-20.98 Y3.324
X-20.513 Y5.524
X-20.473 Y5.708
G2 X-19.336 Y8.827 I39.22 J-12.529
G1 X-19.073 Y9.314
X-18.156 Y11.039
X-18.048 Y11.208
X-17.789 Y11.6
X-17.678 Y11.758
X-16.48 Y13.408
X-16.331 Y13.591
G2 X-14.224 Y15.789 I30.235 J-26.872
G1 X-14.121 Y15.885
G2 X-11.886 Y17.625 I58.304 J-72.628
X-9.338 Y19.091 I35.259 J-58.313
X-6.786 Y20.133 I25.367 J-58.499
G1 X-6.419 Y20.251
X-6.235 Y20.308
X-4.035 Y20.857
X-3.851 Y20.9
X-3.301 Y20.983
X-0.917 Y21.233
X-0.734 Y21.236
X-0.367 Y21.237
X-0.183 Y21.233
X2.017 Y21.155
X2.201 Y21.137
G2 X5.135 Y20.628 I-8.412 J-57.181
X8.07 Y19.666 I-17.617 J-58.697
G1 X8.872 Y19.274
X10.453 Y18.503
X10.82 Y18.283
X11.004 Y18.166
X12.838 Y16.929
X13.388 Y16.487
G2 X15.364 Y14.694 I-38.541 J-44.468
G1 X15.395 Y14.654
G3 X15.747 Y14.539 I0.286 J0.279
G1 X15.803 Y14.562 Z-13.995
X15.858 Y14.584 Z-13.981
X15.91 Y14.605 Z-13.958
X15.947 Y14.645 Z-13.926
X15.979 Y14.681 Z-13.885
X16.007 Y14.711 Z-13.837
X16.029 Y14.736 Z-13.783
X16.04 Y14.758 Z-13.725
X16.047 Y14.771 Z-13.663
X16.049 Y14.776 Z-13.6
G0 Z5
X-21.398 Y-5.909
Z-12.2
G1 Z-12.6 F1200
X-21.396 Y-5.902 Z-12.678
X-21.391 Y-5.88 Z-12.753
X-21.381 Y-5.844 Z-12.822
X-21.369 Y-5.796 Z-12.883
X-21.354 Y-5.737 Z-12.933
X-21.337 Y-5.67 Z-12.97
X-21.318 Y-5.597 Z-12.992
X-21.299 Y-5.522 Z-13
G3 X-20.986 Y-3.344 I-9.893 J2.534
G1 Y-3.142
X-20.942 Y-2.945
X-20.767 Y-2.567
X-20.714 Y-2.42
X-20.685 Y-2.266
X-20.683 Y-2.11
X-20.807 Y-0.342
X-20.811 Y-0.159
X-20.809 Y0.208
X-20.803 Y0.391
X-20.649 Y2.591
X-20.633 Y2.774
X-20.608 Y2.958
G2 X-19.993 Y5.828 I58.389 J-11.001
G1 X-19.807 Y6.338
X-19.168 Y8.091
X-18.937 Y8.641
G2 X-17.607 Y11.119 I59.464 J-30.313
X-15.77 Y13.597 I50.068 J-35.207
G1 X-14.121 Y15.29
X-13.983 Y15.424
G2 X-11.557 Y17.322 I30.618 J-36.637
G1 X-11.004 Y17.642
X-9.353 Y18.594
X-9.17 Y18.691
X-8.986 Y18.776
X-8.803 Y18.855
X-6.858 Y19.641
X-6.349 Y19.824
X-6.235 Y19.861
X-4.035 Y20.41
X-3.851 Y20.454
X-3.301 Y20.547
X-2.751 Y20.605
X-0.917 Y20.798
X-0.734 Y20.801
X-0.367 Y20.803
G2 X2.201 Y20.704 I-0.761 J-53.124
X5.089 Y20.192 I-11.712 J-74.455
G1 X5.685 Y20.002
X7.36 Y19.458
X7.519 Y19.405
X7.886 Y19.259
G2 X10.453 Y18.008 I-19.317 J-42.924
X12.838 Y16.397 I-66.786 J-101.405
G1 X13.11 Y16.158
X14.739 Y14.691
X14.855 Y14.578
X15.222 Y14.187
G2 X16.874 Y12.202 I-71.223 J-60.97
X18.34 Y9.86 I-116.967 J-74.807
X19.44 Y7.419 I-51.929 J-24.885
G1 X19.623 Y6.939
X19.665 Y6.808
X20.296 Y4.608
X20.341 Y4.424
G2 X20.767 Y1.491 I-49.274 J-8.656
G1 X20.78 Y0.941
Y-0.892
X20.772 Y-1.442
G2 X20.316 Y-4.56 I-46.43 J5.206
G1 X19.889 Y-6.026
X19.679 Y-6.759
X19.619 Y-6.942
X19.44 Y-7.427
G2 X18.341 Y-9.859 I-60.164 J25.721
X16.873 Y-12.205 I-117.458 J71.874
X14.857 Y-14.588 I-43.492 J34.732
G1 X13.755 Y-15.577
X13.367 Y-15.926
X12.838 Y-16.397
G2 X10.453 Y-18.009 I-80.967 J117.178
G1 X10.233 Y-18.126
X10.087 Y-18.2
X8.069 Y-19.184
X7.974 Y-19.226
X7.703 Y-19.341
G2 X4.953 Y-20.224 I-17.86 J50.899
X2.018 Y-20.726 I-12.557 J64.602
X-0.917 Y-20.802 I-3.151 J64.483
G1 X-3.118 Y-20.567
X-3.301 Y-20.547
X-3.851 Y-20.454
X-4.035 Y-20.41
X-6.235 Y-19.861
X-6.419 Y-19.799
X-6.786 Y-19.667
X-6.978 Y-19.592
X-8.803 Y-18.855
X-8.986 Y-18.78
X-9.206 Y-18.676
X-9.353 Y-18.594
X-11.118 Y-17.576
G2 X-12.194 Y-16.841 I3.03 J5.595
X-14.039 Y-15.376 I25.245 J33.694
G1 X-14.57 Y-14.826
X-15.81 Y-13.542
X-15.955 Y-13.379
G2 X-17.697 Y-10.978 I65.979 J49.702
G1 X-17.991 Y-10.426
X-18.89 Y-8.736
X-18.962 Y-8.592
X-19.186 Y-8.042
X-19.854 Y-6.209
X-19.99 Y-5.828
G2 X-20.613 Y-2.909 I64.807 J15.359
G1 X-20.637 Y-2.726
X-20.653 Y-2.542
X-20.683 Y-2.11
G3 X-20.888 Y-1.801 I-0.398 J-0.042
G1 X-20.947 Y-1.784 Z-12.995
X-21.003 Y-1.768 Z-12.981
X-21.058 Y-1.752 Z-12.958
X-21.081 Y-1.751 Z-12.946
X-21.138 Y-1.764 Z-12.904
X-21.186 Y-1.775 Z-12.853
X-21.225 Y-1.784 Z-12.794
X-21.253 Y-1.79 Z-12.729
X-21.267 Y-1.798 Z-12.665
X-21.272 Y-1.8 Z-12.6
G0 Z5
X-16.798 Y-16.311
Z-11.2
G1 Z-11.6 F1200
X-16.791 Y-16.308 Z-11.678
X-16.771 Y-16.296 Z-11.753
X-16.739 Y-16.278 Z-11.822
X-16.696 Y-16.253 Z-11.883
X-16.643 Y-16.223 Z-11.933
X-16.583 Y-16.189 Z-11.97
X-16.518 Y-16.152 Z-11.992
X-16.45 Y-16.114 Z-12
G3 X-14.666 Y-14.826 I-5.049 J8.876
G1 X-14.558 Y-14.722
G3 X-14.711 Y-14.056 I-0.629 J0.206
G2 X-15.844 Y-12.81 I9.935 J10.17
G1 X-17.056 Y-11.141
X-17.172 Y-10.976
X-17.5 Y-10.426
X-18.378 Y-8.776
X-18.473 Y-8.592
X-18.724 Y-8.042
G2 X-19.639 Y-5.478 I59.502 J22.663
X-20.203 Y-2.726 I71.069 J16.008
G1 X-20.218 Y-2.542
X-20.372 Y-0.342
X-20.377 Y-0.159
X-20.375 Y0.208
X-20.369 Y0.391
X-20.215 Y2.591
X-20.195 Y2.774
G2 X-19.572 Y5.708 I45.863 J-8.203
G1 X-19.375 Y6.258
X-18.774 Y7.908
X-18.706 Y8.091
X-18.448 Y8.641
X-18.339 Y8.848
X-17.474 Y10.474
X-17.137 Y11.024
X-17.056 Y11.141
X-15.808 Y12.858
X-15.334 Y13.408
G2 X-13.54 Y15.242 I35.791 J-33.221
G1 X-13.204 Y15.504
X-11.663 Y16.708
X-11.554 Y16.787
X-11.37 Y16.913
X-11.187 Y17.035
X-9.17 Y18.2
X-8.986 Y18.29
G2 X-6.235 Y19.409 I16.197 J-35.9
G1 X-5.685 Y19.552
X-4.035 Y19.964
X-3.851 Y20.008
X-3.301 Y20.111
X-3.118 Y20.131
X-0.917 Y20.362
X-0.734 Y20.366
G2 X2.017 Y20.282 I0.041 J-43.537
G1 X2.201 Y20.264
G2 X4.952 Y19.772 I-7.402 J-49.346
G1 X5.135 Y19.725
X7.336 Y19.01
X7.519 Y18.946
X7.703 Y18.871
X7.886 Y18.791
X9.72 Y17.897
G2 X10.455 Y17.493 I-2.02 J-4.545
G1 X12.159 Y16.341
X12.287 Y16.249
X12.654 Y15.964
G2 X14.686 Y14.141 I-30.212 J-35.722
G1 X14.855 Y13.95
X16.387 Y12.124
X16.515 Y11.941
X16.689 Y11.686
X16.76 Y11.574
X17.791 Y9.924
X17.895 Y9.741
X18.09 Y9.374
G2 X19.145 Y6.991 I-41.718 J-19.904
X19.978 Y4.059 I-37.291 J-12.173
X20.334 Y1.491 I-272.866 J-39.093
G1 X20.346 Y0.941
Y-0.892
X20.337 Y-1.442
G2 X19.982 Y-4.009 I-99.025 J12.368
G1 X19.907 Y-4.376
X19.859 Y-4.559
X19.228 Y-6.759
X19.163 Y-6.942
X19.014 Y-7.309
X18.936 Y-7.492
X18.202 Y-9.142
X18.156 Y-9.243
X17.923 Y-9.692
X17.821 Y-9.876
X16.79 Y-11.526
X16.689 Y-11.683
X16.424 Y-12.076
X16.322 Y-12.202
X14.855 Y-13.95
G2 X14.121 Y-14.664 I-4.458 J3.849
G1 X12.838 Y-15.82
X12.654 Y-15.964
X12.231 Y-16.292
X10.453 Y-17.491
X10.327 Y-17.576
X9.903 Y-17.805
X9.72 Y-17.897
X8.069 Y-18.702
X7.886 Y-18.788
X7.519 Y-18.945
X7.336 Y-19.01
X5.135 Y-19.725
X4.952 Y-19.771
G2 X2.018 Y-20.287 I-8.867 J41.846
X-0.734 Y-20.37 I-3.367 J65.49
G1 X-0.917 Y-20.362
X-3.118 Y-20.131
X-3.301 Y-20.111
X-3.851 Y-20.008
G2 X-6.42 Y-19.354 I13.687 J59.089
G1 X-6.969 Y-19.129
X-8.62 Y-18.462
X-8.803 Y-18.375
X-9.17 Y-18.196
X-9.298 Y-18.126
X-11.203 Y-17.026
X-11.37 Y-16.919
X-11.554 Y-16.788
X-11.737 Y-16.65
X-13.388 Y-15.361
G2 X-14.143 Y-14.641 I4.139 J5.102
G1 X-14.711 Y-14.056
G3 X-15.067 Y-13.951 I-0.278 J-0.288
G1 X-15.122 Y-13.976 Z-11.995
X-15.176 Y-14 Z-11.981
X-15.228 Y-14.023 Z-11.958
X-15.263 Y-14.064 Z-11.926
X-15.294 Y-14.1 Z-11.885
X-15.321 Y-14.132 Z-11.837
X-15.343 Y-14.157 Z-11.783
X-15.353 Y-14.179 Z-11.725
X-15.359 Y-14.193 Z-11.663
X-15.361 Y-14.197 Z-11.6
G0 Z5
X-16.502 Y-15.997
Z-10.2
G1 Z-10.6 F1200
X-16.496 Y-15.993 Z-10.678
X-16.476 Y-15.982 Z-10.753
X-16.444 Y-15.963 Z-10.822
X-16.401 Y-15.939 Z-10.883
X-16.348 Y-15.909 Z-10.933
X-16.288 Y-15.875 Z-10.97
X-16.223 Y-15.837 Z-10.992
X-16.155 Y-15.799 Z-11
G3 X-14.371 Y-14.511 I-5.049 J8.876
G1 X-14.263 Y-14.407
G3 X-14.457 Y-13.553 I-0.803 J0.266
G2 X-15.223 Y-12.749 I22.563 J22.251
X-17.003 Y-10.247 I36.268 J27.69
G1 X-17.873 Y-8.592
X-18.156 Y-8.037
G2 X-19.081 Y-5.477 I57.639 J22.267
X-19.664 Y-2.726 I46.089 J11.206
X-19.844 Y-0.159 I95.124 J7.965
G1 X-19.842 Y0.208
G2 X-19.659 Y2.775 I61.167 J-3.057
X-19.064 Y5.525 I42.509 J-7.763
X-18.156 Y8.039 I54.879 J-18.405
X-16.873 Y10.466 I72.105 J-36.562
X-15.13 Y12.86 I46.896 J-32.305
G1 X-14.421 Y13.591
X-13.536 Y14.508
X-13.388 Y14.656
G2 X-11.006 Y16.528 I26.195 J-30.883
X-8.621 Y17.887 I46.537 J-78.839
G1 X-8.069 Y18.111
X-6.419 Y18.778
X-6.235 Y18.848
X-5.685 Y19.004
X-3.864 Y19.458
X-3.301 Y19.575
X-3.118 Y19.596
X-0.917 Y19.828
X-0.734 Y19.832
X-0.367 Y19.837
G2 X2.201 Y19.732 I-0.52 J-44.079
G1 X2.718 Y19.641
X4.401 Y19.344
X4.585 Y19.305
X4.952 Y19.216
G2 X7.52 Y18.375 I-13.424 J-45.316
X9.905 Y17.208 I-47.358 J-99.835
X12.104 Y15.733 I-30.824 J-48.315
G1 X12.269 Y15.608
G2 X14.306 Y13.769 I-45.624 J-52.574
X16.132 Y11.578 I-40.963 J-35.984
X17.6 Y9.193 I-62.832 J-40.338
G1 X18.339 Y7.525
G2 X18.818 Y6.258 I-6.02 J-2.998
G1 X19.345 Y4.424
X19.393 Y4.241
X19.44 Y4.009
X19.465 Y3.874
X19.774 Y1.674
X19.797 Y1.491
X19.814 Y0.941
X19.815 Y-0.892
X19.802 Y-1.442
G2 X19.438 Y-4.009 I-118.598 J15.516
G1 X19.402 Y-4.192
X19.359 Y-4.376
X18.78 Y-6.392
X18.667 Y-6.759
X18.595 Y-6.942
X18.339 Y-7.525
X17.606 Y-9.171
X17.521 Y-9.326
G2 X16.032 Y-11.711 I-36.82 J21.332
X14.489 Y-13.548 I-47.72 J38.504
G1 X14.121 Y-13.942
G2 X12.096 Y-15.745 I-31.285 J33.096
G1 X11.824 Y-15.926
X10.27 Y-16.974
X9.897 Y-17.209
G2 X7.338 Y-18.45 I-28.947 J56.414
X4.953 Y-19.22 I-130.075 J399.232
G1 X4.585 Y-19.305
G2 X2.201 Y-19.727 I-14.221 J73.45
G1 X2.017 Y-19.75
G2 X-0.734 Y-19.836 I-2.869 J47.699
G1 X-0.917 Y-19.828
X-3.153 Y-19.592
X-3.301 Y-19.575
X-3.851 Y-19.461
X-5.531 Y-19.042
X-5.685 Y-19.004
X-6.235 Y-18.848
X-6.419 Y-18.777
X-8.069 Y-18.111
X-8.62 Y-17.885
G2 X-11.19 Y-16.406 I25.752 J47.704
G1 X-11.331 Y-16.292
X-12.838 Y-15.115
X-13.404 Y-14.642
X-13.583 Y-14.459
X-14.457 Y-13.553
G3 X-14.813 Y-13.449 I-0.278 J-0.288
G1 X-14.868 Y-13.473 Z-10.995
X-14.922 Y-13.497 Z-10.981
X-14.974 Y-13.52 Z-10.958
X-15.009 Y-13.561 Z-10.926
X-15.04 Y-13.598 Z-10.885
X-15.067 Y-13.629 Z-10.837
X-15.089 Y-13.654 Z-10.783
X-15.099 Y-13.676 Z-10.725
X-15.105 Y-13.69 Z-10.663
X-15.107 Y-13.695 Z-10.6
G0 Z5
X-24.54 Y-23.907
Z-19.69
G1 Z-20.09 F1200
X-24.534 Y-23.903 Z-20.168
X-24.514 Y-23.892 Z-20.243
X-24.482 Y-23.873 Z-20.312
X-24.439 Y-23.848 Z-20.373
X-24.387 Y-23.818 Z-20.423
X-24.327 Y-23.783 Z-20.46
X-24.262 Y-23.745 Z-20.482
X-24.195 Y-23.706 Z-20.49
G3 X-22.423 Y-22.402 I-5.132 J8.829
G1 X-22.323 Y-22.304
G3 X-21.787 Y-20.991 I-3.801 J2.319
G1 X-21.636 Y-20.295
G3 X-21.416 Y-17.073 I-22.253 J3.141
X-21.385 Y-12.223 I-244.81 J4.001
G1 X-21.384 Y-6.977
X-21.389 Y-6.88
X-21.404 Y-6.783
G2 X-22.006 Y-4.46 I13.982 J4.859
G1 X-22.216 Y-3.276
G2 X-22.406 Y-1.442 I11.532 J2.12
G1 X-22.468 Y0.208
G2 X-22.101 Y4.058 I26.903 J-0.627
G3 X-21.546 Y6.849 I-28.242 J7.066
X-21.398 Y11.695 I-52.797 J4.037
G1 X-21.389 Y12.503
X-21.387 Y14.12
X-21.386 Y19.171
X-21.342 Y19.369
X-21.173 Y19.735
X-20.913 Y20.045
X-20.289 Y20.558
X-19.549 Y20.883
X-18.766 Y21.083
G2 X-15.546 Y21.34 I3.201 J-19.767
X-6.945 Y21.381 I6.262 J-413.489
G3 X-6.235 Y21.591 I-0.945 J4.51
G2 X-3.119 Y22.259 I9.137 J-34.999
X-0.184 Y22.478 I5.356 J-52.042
X2.751 Y22.306 I-1.099 J-43.861
X6.201 Y21.626 I-7.191 J-45.578
G3 X9.425 Y21.412 I3.196 J23.781
X19.124 Y21.381 I6.604 J554.656
G1 X19.323 Y21.345
X19.697 Y21.193
X20.014 Y20.942
X20.54 Y20.328
X20.874 Y19.592
X21.08 Y18.811
G2 X21.345 Y15.593 I-19.174 J-3.201
X21.386 Y6.94 I-399.143 J-6.24
X22.03 Y4.425 I-130.872 J-34.821
X22.461 Y0.758 I-28.701 J-5.236
X22.376 Y-2.144 I-50.719 J0.036
X21.68 Y-6.084 I-44.237 J5.782
G3 X21.424 Y-9.303 I19.269 J-3.155
X21.387 Y-14.153 I211.327 J-4.023
G1 X21.386 Y-19.204
X21.342 Y-19.401
X21.172 Y-19.768
X20.641 Y-20.377
X19.934 Y-20.77
X19.164 Y-21.014
X18.369 Y-21.162
G2 X14.336 Y-21.36 I-3.616 J32.479
X6.911 Y-21.382 I-5.441 J582.837
G1 X6.824 Y-21.398
G2 X4.953 Y-21.925 I-39.687 J137.555
X1.651 Y-22.416 I-6.957 J35.429
X-1.651 Y-22.415 I-1.64 J38.374
X-4.586 Y-22.007 I5.749 J52.127
G3 X-8.524 Y-21.442 I-4.135 J-14.829
X-14.181 Y-21.389 I-4.399 J-166.337
G1 X-17.818 Y-21.385
X-18.016 Y-21.346
X-18.386 Y-21.183
X-18.679 Y-20.904
X-19.149 Y-20.246
X-19.427 Y-19.488
X-19.587 Y-18.695
G2 X-19.764 Y-15.47 I25.257 J3.007
X-19.783 Y-10.856 I301.753 J3.51
G1 X-19.795 Y-10.708
X-19.831 Y-10.563
G2 X-20.772 Y-8.593 I57.133 J28.51
X-21.43 Y-6.689 I37.108 J13.878
G1 X-21.526 Y-6.392
X-21.585 Y-6.209
X-21.668 Y-5.94
G2 X-21.909 Y-4.925 I7.696 J2.367
X-22.333 Y-2.543 I36.15 J7.655
X-22.455 Y0.941 I32.666 J2.89
X-22.141 Y3.875 I47.742 J-3.633
G1 X-22.097 Y4.058
X-22.007 Y4.479
X-22.004 Y4.493
G2 X-21.824 Y5.257 I43.955 J-9.948
X-20.94 Y8.09 I15.851 J-3.393
G1 X-20.497 Y9.191
X-20.316 Y9.676
X-20.168 Y10.194
X-20.015 Y10.956
G3 X-19.816 Y14.181 I-25.184 J3.173
X-19.791 Y17.009 I-141.417 J2.685
G1 X-19.732 Y17.409
X-19.575 Y17.782
X-19.111 Y18.444
X-18.454 Y18.913
X-17.709 Y19.228
X-16.927 Y19.433
G2 X-13.712 Y19.726 I3.357 J-19.05
G3 X-10.709 Y19.781 I-10.134 J628.837
G1 X-10.563 Y19.82
X-10.426 Y19.88
G2 X-8.068 Y20.949 I7.168 J-12.677
G1 X-6.969 Y21.352
X-6.786 Y21.415
X-6.754 Y21.425
X-6.419 Y21.534
X-6.235 Y21.591
X-6.002 Y21.649
G2 X-3.119 Y22.259 I8.47 J-32.929
X-0.184 Y22.478 I5.4 J-52.483
X3.119 Y22.26 I-0.832 J-37.644
X4.917 Y21.904 I-8.172 J-46.025
G1 X5.685 Y21.74
G2 X7.335 Y21.217 I-5.047 J-18.79
G1 X8.646 Y20.741
G3 X9.935 Y20.233 I6.64 J14.96
G1 X10.557 Y20.086
G3 X13.775 Y19.821 I3.156 J18.609
X17.007 Y19.785 I2.97 J123.517
G1 X17.408 Y19.729
X17.781 Y19.574
X18.445 Y19.113
X18.916 Y18.456
X19.232 Y17.712
X19.438 Y16.931
G2 X19.732 Y13.715 I-18.977 J-3.356
G3 X19.788 Y10.726 I394.514 J5.994
X20.078 Y10.11 I2.251 J0.681
G2 X21.419 Y6.81 I-30.028 J-14.125
G1 X21.422 Y6.769
X21.516 Y6.441
X21.567 Y6.258
X21.632 Y6.012
G2 X22.102 Y4.058 I-23.924 J-6.789
X22.463 Y0.758 I-34.137 J-5.409
X22.377 Y-2.144 I-56.451 J0.233
X21.996 Y-4.523 I-40.294 J5.222
G1 X21.925 Y-4.926
X21.889 Y-5.109
X21.842 Y-5.292
G2 X20.987 Y-8.042 I-42.639 J11.757
G3 X20.34 Y-9.595 I68.198 J-29.322
G1 X20.192 Y-10.089
X20.04 Y-10.802
G3 X19.82 Y-14.025 I22.72 J-3.171
X19.79 Y-17.257 I148.944 J-2.977
G1 X19.673 Y-17.644
X19.469 Y-17.993
X18.937 Y-18.601
X18.247 Y-19.022
X17.488 Y-19.301
X16.7 Y-19.48
G2 X13.48 Y-19.735 I-3.351 J21.912
G1 X12.672 Y-19.754
X11.864 Y-19.765
X10.899 Y-19.772
X10.747 Y-19.785
X10.6 Y-19.823
G2 X8.069 Y-20.978 I-29.24 J60.693
X6.74 Y-21.419 I-9.69 J27.02
G1 X6.235 Y-21.564
X5.985 Y-21.636
G2 X3.301 Y-22.2 I-4.326 J13.929
G1 X2.201 Y-22.359
G2 X-2.018 Y-22.379 I-2.229 J25.249
X-4.557 Y-22.013 I8.778 J69.854
G1 X-4.585 Y-22.002
X-5.318 Y-21.819
G2 X-7.519 Y-21.183 I12.18 J46.282
X-9.125 Y-20.51 I13.049 J33.371
G1 X-9.577 Y-20.334
X-10.074 Y-20.187
X-10.794 Y-20.035
G3 X-14.017 Y-19.818 I-3.168 J-23.059
G1 X-14.825 Y-19.803
X-15.634 Y-19.796
X-16.029 Y-19.714
X-16.389 Y-19.53
X-17.015 Y-19.019
X-17.445 Y-18.335
X-17.725 Y-17.577
X-17.903 Y-16.788
G2 X-18.146 Y-13.504 I22.589 J3.323
G1 X-18.169 Y-13.324
X-18.225 Y-13.151
X-18.313 Y-12.992
X-19.179 Y-11.709
G2 X-19.89 Y-10.426 I10.681 J6.756
G3 X-20.553 Y-10.38 I-0.347 J-0.199
G1 X-20.601 Y-10.442 Z-20.482
X-20.647 Y-10.501 Z-20.46
X-20.689 Y-10.556 Z-20.423
X-20.726 Y-10.604 Z-20.373
X-20.757 Y-10.643 Z-20.312
X-20.78 Y-10.672 Z-20.243
X-20.793 Y-10.69 Z-20.168
X-20.798 Y-10.696 Z-20.09
G0 Z5
X-8.296 Y-21.344
Z-19.69
G1 Z-20.09 F1200
X-8.3 Y-21.338 Z-20.168
X-8.313 Y-21.32 Z-20.243
X-8.335 Y-21.289 Z-20.312
X-8.363 Y-21.249 Z-20.373
X-8.398 Y-21.199 Z-20.423
X-8.438 Y-21.143 Z-20.46
X-8.482 Y-21.082 Z-20.482
X-8.527 Y-21.018 Z-20.49
G3 X-9.125 Y-20.509 I-1.292 J-0.914
G2 X-10.454 Y-19.898 I6.312 J15.489
X-11.973 Y-19 I34.69 J60.378
G1 X-12.29 Y-18.859
X-12.697 Y-18.712
X-13.258 Y-18.558
X-14.052 Y-18.408
X-14.425 Y-18.251
X-15.1 Y-17.806
X-15.597 Y-17.169
X-15.941 Y-16.438
X-16.147 Y-15.745
X-16.198 Y-15.612
X-16.269 Y-15.487
X-16.359 Y-15.376
G3 X-17.012 Y-15.501 I-0.285 J-0.281
G1 X-17.043 Y-15.573 Z-20.482
X-17.072 Y-15.642 Z-20.46
X-17.099 Y-15.705 Z-20.423
X-17.122 Y-15.761 Z-20.373
X-17.142 Y-15.807 Z-20.312
X-17.156 Y-15.841 Z-20.243
X-17.165 Y-15.862 Z-20.168
X-17.168 Y-15.869 Z-20.09
G0 Z5
X-11.032 Y-20.078
Z-19.69
G1 Z-20.09 F1200
X-11.036 Y-20.071 Z-20.168
X-11.046 Y-20.051 Z-20.243
X-11.063 Y-20.018 Z-20.312
X-11.086 Y-19.974 Z-20.373
X-11.114 Y-19.92 Z-20.423
X-11.145 Y-19.859 Z-20.46
X-11.18 Y-19.792 Z-20.482
X-11.215 Y-19.722 Z-20.49
G3 X-11.737 Y-19.135 I-1.407 J-0.725
G1 X-12.838 Y-18.448
X-13.032 Y-18.309
X-13.204 Y-18.183
G2 X-15.406 Y-16.368 I23.726 J31.029
X-17.607 Y-13.976 I30.582 J30.344
G1 X-18.186 Y-13.176
X-18.313 Y-12.992
G3 X-18.977 Y-13.026 I-0.321 J-0.239
G1 X-19.017 Y-13.093 Z-20.482
X-19.055 Y-13.158 Z-20.46
X-19.091 Y-13.217 Z-20.423
X-19.122 Y-13.269 Z-20.373
X-19.148 Y-13.312 Z-20.312
X-19.166 Y-13.343 Z-20.243
X-19.178 Y-13.363 Z-20.168
X-19.182 Y-13.37 Z-20.09
G0 Z5
X-21.324 Y8.353
Z-19.69
G1 Z-20.09 F1200
X-21.317 Y8.358 Z-20.168
X-21.299 Y8.371 Z-20.243
X-21.269 Y8.393 Z-20.312
X-21.229 Y8.422 Z-20.373
X-21.179 Y8.457 Z-20.423
X-21.123 Y8.498 Z-20.46
X-21.063 Y8.542 Z-20.482
X-20.999 Y8.587 Z-20.49
G3 X-20.497 Y9.191 I-0.927 J1.282
G2 X-19.128 Y11.755 I19.315 J-8.665
G1 X-18.946 Y12.117
X-18.8 Y12.467
X-18.65 Y12.928
X-18.495 Y13.578
X-18.37 Y14.376
X-18.296 Y15.181
X-18.236 Y15.581
X-18.096 Y15.96
X-17.672 Y16.648
X-17.045 Y17.158
X-16.318 Y17.512
X-15.545 Y17.748
G2 X-13.435 Y18.053 I3.198 J-14.67
G1 X-13.276 Y18.12
X-13.13 Y18.207
G2 X-10.423 Y19.875 I9.728 J-12.762
G1 X-10.359 Y19.921
X-10.305 Y19.98
X-10.263 Y20.047
X-10.236 Y20.122
X-10.224 Y20.2
X-10.227 Y20.279
X-10.245 Y20.355
X-10.278 Y20.427
X-10.324 Y20.49
X-10.382 Y20.544
X-10.444 Y20.591 Z-20.482
X-10.504 Y20.637 Z-20.46
X-10.558 Y20.679 Z-20.423
X-10.607 Y20.716 Z-20.373
X-10.646 Y20.746 Z-20.312
X-10.675 Y20.769 Z-20.243
X-10.693 Y20.783 Z-20.168
X-10.7 Y20.787 Z-20.09
G0 Z5
X-20.051 Y11.022
Z-19.69
G1 Z-20.09 F1200
X-20.044 Y11.026 Z-20.168
X-20.024 Y11.037 Z-20.243
X-19.992 Y11.055 Z-20.312
X-19.948 Y11.079 Z-20.373
X-19.895 Y11.109 Z-20.423
X-19.835 Y11.143 Z-20.46
X-19.769 Y11.179 Z-20.482
X-19.701 Y11.217 Z-20.49
G3 X-19.132 Y11.758 I-0.771 J1.382
G2 X-17.968 Y13.453 I10.608 J-6.034
G1 X-17.056 Y14.631
G2 X-14.619 Y17.073 I23.765 J-21.272
X-13.13 Y18.207 I19.694 J-24.325
G3 X-13.179 Y18.871 I-0.247 J0.316
G1 X-13.247 Y18.909 Z-20.482
X-13.312 Y18.946 Z-20.46
X-13.373 Y18.98 Z-20.423
X-13.425 Y19.01 Z-20.373
X-13.469 Y19.034 Z-20.312
X-13.501 Y19.053 Z-20.243
X-13.521 Y19.064 Z-20.168
X-13.527 Y19.068 Z-20.09
G0 Z5
X8.273 Y21.417
Z-19.69
G1 Z-20.09 F1200
X8.278 Y21.411 Z-20.168
X8.29 Y21.392 Z-20.243
X8.311 Y21.361 Z-20.312
X8.338 Y21.32 Z-20.373
X8.372 Y21.269 Z-20.423
X8.41 Y21.212 Z-20.46
X8.451 Y21.149 Z-20.482
X8.495 Y21.084 Z-20.49
G3 X9.078 Y20.558 I1.319 J0.875
G2 X11.941 Y19.05 I-16.557 J-34.905
G1 X12.226 Y18.906
X12.597 Y18.76
X13.095 Y18.608
X13.809 Y18.452
X14.61 Y18.343
X15.416 Y18.278
X15.806 Y18.171
X16.166 Y17.988
X16.809 Y17.499
X17.273 Y16.837
X17.591 Y16.094
G2 X18.035 Y13.634 I-10.013 J-3.077
G3 X18.341 Y12.988 I1.069 J0.111
G2 X19.9 Y10.425 I-26.684 J-17.988
G1 X19.948 Y10.363
X20.007 Y10.311
X20.075 Y10.272
X20.15 Y10.247
X20.227 Y10.237
X20.306 Y10.242
X20.382 Y10.263
X20.452 Y10.298
X20.514 Y10.346
X20.566 Y10.405
X20.611 Y10.468 Z-20.482
X20.655 Y10.529 Z-20.46
X20.695 Y10.585 Z-20.423
X20.73 Y10.635 Z-20.373
X20.759 Y10.675 Z-20.312
X20.781 Y10.705 Z-20.243
X20.794 Y10.724 Z-20.168
X20.798 Y10.73 Z-20.09
G0 Z5
X11.059 Y20.13
Z-19.69
G1 Z-20.09 F1200
X11.063 Y20.123 Z-20.168
X11.073 Y20.102 Z-20.243
X11.089 Y20.069 Z-20.312
X11.11 Y20.024 Z-20.373
X11.136 Y19.97 Z-20.423
X11.166 Y19.907 Z-20.46
X11.199 Y19.84 Z-20.482
X11.232 Y19.769 Z-20.49
G3 X11.737 Y19.168 I1.427 J0.685
G2 X14.676 Y17.014 I-15.404 J-24.101
X16.696 Y15.054 I-28.826 J-31.733
X18.231 Y13.127 I-69.601 J-57.016
G1 X18.287 Y13.072
X18.352 Y13.029
X18.425 Y13
X18.502 Y12.985
X18.58 Y12.986
X18.657 Y13.002
X18.729 Y13.032
X18.794 Y13.076
X18.849 Y13.132
X18.892 Y13.198
X18.928 Y13.267 Z-20.482
X18.963 Y13.334 Z-20.46
X18.995 Y13.395 Z-20.423
X19.023 Y13.449 Z-20.373
X19.046 Y13.493 Z-20.312
X19.063 Y13.525 Z-20.243
X19.074 Y13.546 Z-20.168
X19.077 Y13.552 Z-20.09
G0 Z5
X21.377 Y-8.252
Z-19.69
G1 Z-20.09 F1200
X21.371 Y-8.256 Z-20.168
X21.352 Y-8.269 Z-20.243
X21.322 Y-8.291 Z-20.312
X21.281 Y-8.319 Z-20.373
X21.232 Y-8.354 Z-20.423
X21.175 Y-8.394 Z-20.46
X21.114 Y-8.437 Z-20.482
X21.05 Y-8.482 Z-20.49
G3 X20.54 Y-9.079 I0.911 J-1.294
G2 X19.511 Y-11.161 I-34.89 J15.961
G3 X18.885 Y-12.244 I5.983 J-4.18
G1 X18.739 Y-12.633
X18.586 Y-13.163
X18.428 Y-13.935
X18.331 Y-14.737
X18.273 Y-15.543
X18.139 Y-15.924
X17.728 Y-16.62
X17.106 Y-17.136
X16.382 Y-17.496
X15.611 Y-17.738
G2 X13.484 Y-18.051 I-3.133 J13.924
G1 X13.334 Y-18.111
G2 X11.187 Y-19.479 I-166.652 J259.119
G1 X10.999 Y-19.592
X10.46 Y-19.884
G3 X10.421 Y-20.548 I0.202 J-0.345
G1 X10.483 Y-20.595 Z-20.482
X10.543 Y-20.641 Z-20.46
X10.598 Y-20.683 Z-20.423
X10.647 Y-20.719 Z-20.373
X10.686 Y-20.749 Z-20.312
X10.716 Y-20.771 Z-20.243
X10.734 Y-20.785 Z-20.168
X10.74 Y-20.79 Z-20.09
G0 Z5
X20.116 Y-11.017
Z-19.69
G1 Z-20.09 F1200
X20.109 Y-11.021 Z-20.168
X20.088 Y-11.031 Z-20.243
X20.055 Y-11.047 Z-20.312
X20.011 Y-11.069 Z-20.373
X19.956 Y-11.096 Z-20.423
X19.895 Y-11.127 Z-20.46
X19.827 Y-11.161 Z-20.482
X19.757 Y-11.195 Z-20.49
G3 X19.163 Y-11.709 I0.705 J-1.417
G2 X17.649 Y-13.912 I-23.327 J14.41
X15.775 Y-16.016 I-40.073 J33.811
X13.201 Y-18.196 I-28.043 J30.511
G1 X13.143 Y-18.246
X13.096 Y-18.307
X13.061 Y-18.376
X13.041 Y-18.45
X13.035 Y-18.528
X13.045 Y-18.605
X13.07 Y-18.678
X13.109 Y-18.746
X13.16 Y-18.805
X13.222 Y-18.853
X13.288 Y-18.894 Z-20.482
X13.352 Y-18.933 Z-20.46
X13.411 Y-18.969 Z-20.423
X13.463 Y-19.001 Z-20.373
X13.506 Y-19.027 Z-20.312
X13.537 Y-19.046 Z-20.243
X13.557 Y-19.058 Z-20.168
X13.563 Y-19.062 Z-20.09
G0 Z15
M9
G28 G91 Z0
G90
G28 G91 X0 Y0
G90
M30
%
